(G-CODE GENERATED BY FLATCAM v8.994 - www.flatcam.org - Version Date: 2020/11/7)

(Name: PCB1_Copper_Signal_Bot.gbr_iso_combined_cnc)
(Type: G-code from Geometry)
(Units: MM)

(Created on Tuesday, 25 November 2025 at 20:12)

(This preprocessor is the default preprocessor used by FlatCAM.)
(It is made to work with MACH3 compatible motion controllers.)

(TOOL DIAMETER: 0.3 mm)
(Feedrate_XY: 200.0 mm/min)
(Feedrate_Z: 80.0 mm/min)
(Feedrate rapids 1500.0 mm/min)

(Z_Cut: 0.0 mm)
(Z_Move: 2.0 mm)
(Z Start: None mm)
(Z End: 30.0 mm)
(X,Y End: 0.0000, 0.0000 mm)
(Steps per circle: 64)
(Preprocessor Geometry: default)

(X range:    2.3180 ...   63.8803  mm)
(Y range:    0.7140 ...   60.0703  mm)

(Spindle Speed: 4500.0 RPM)
G21
G90
G94

G01 F200.00

M5
G00 Z15.0000
G00 X0.0000 Y0.0000
T1
M6    
(MSG, Change to Tool Dia = 0.3000)
M0
G00 Z15.0000

M03 S4500.0
G01 F200.00
G00 X3.3874 Y27.5174
G01 F80.00
G01 Z0.0000
G01 F200.00
G01 X3.3591 Y27.5463
G01 X3.3315 Y27.5760
G01 X3.1996 Y27.7215
G01 X3.1728 Y27.7518
G01 X3.1467 Y27.7828
G01 X3.1214 Y27.8144
G01 X3.0969 Y27.8467
G01 X2.9799 Y28.0044
G01 X2.9562 Y28.0372
G01 X2.9333 Y28.0706
G01 X2.9112 Y28.1046
G01 X2.8900 Y28.1390
G01 X2.7890 Y28.3075
G01 X2.7686 Y28.3425
G01 X2.7491 Y28.3779
G01 X2.7305 Y28.4139
G01 X2.7127 Y28.4503
G01 X2.6287 Y28.6278
G01 X2.6119 Y28.6646
G01 X2.5959 Y28.7018
G01 X2.5809 Y28.7394
G01 X2.5668 Y28.7774
G01 X2.5006 Y28.9623
G01 X2.4874 Y29.0006
G01 X2.4752 Y29.0392
G01 X2.4639 Y29.0781
G01 X2.4536 Y29.1172
G01 X2.4059 Y29.3077
G01 X2.3965 Y29.3471
G01 X2.3882 Y29.3867
G01 X2.3807 Y29.4265
G01 X2.3743 Y29.4665
G01 X2.3455 Y29.6608
G01 X2.3400 Y29.7009
G01 X2.3356 Y29.7411
G01 X2.3321 Y29.7815
G01 X2.3296 Y29.8219
G01 X2.3200 Y30.0180
G01 X2.3185 Y30.0585
G01 X2.3180 Y30.0990
G01 X2.3185 Y30.1395
G01 X2.3200 Y30.1800
G01 X2.3296 Y30.3761
G01 X2.3321 Y30.4165
G01 X2.3356 Y30.4569
G01 X2.3400 Y30.4971
G01 X2.3455 Y30.5372
G01 X2.3743 Y30.7315
G01 X2.3807 Y30.7715
G01 X2.3882 Y30.8113
G01 X2.3965 Y30.8509
G01 X2.4059 Y30.8903
G01 X2.4536 Y31.0808
G01 X2.4639 Y31.1199
G01 X2.4752 Y31.1588
G01 X2.4874 Y31.1974
G01 X2.5006 Y31.2357
G01 X2.5668 Y31.4206
G01 X2.5809 Y31.4586
G01 X2.5959 Y31.4962
G01 X2.6119 Y31.5334
G01 X2.6287 Y31.5702
G01 X2.7127 Y31.7477
G01 X2.7305 Y31.7841
G01 X2.7491 Y31.8201
G01 X2.7686 Y31.8555
G01 X2.7890 Y31.8905
G01 X2.8900 Y32.0590
G01 X2.9112 Y32.0934
G01 X2.9333 Y32.1274
G01 X2.9562 Y32.1608
G01 X2.9799 Y32.1936
G01 X3.0969 Y32.3513
G01 X3.1214 Y32.3836
G01 X3.1467 Y32.4152
G01 X3.1728 Y32.4462
G01 X3.1996 Y32.4765
G01 X3.3315 Y32.6220
G01 X3.3473 Y32.6390
G01 X3.3315 Y32.6560
G01 X3.1996 Y32.8015
G01 X3.1728 Y32.8318
G01 X3.1467 Y32.8628
G01 X3.1214 Y32.8944
G01 X3.0969 Y32.9267
G01 X2.9799 Y33.0844
G01 X2.9562 Y33.1172
G01 X2.9333 Y33.1506
G01 X2.9112 Y33.1846
G01 X2.8900 Y33.2190
G01 X2.7890 Y33.3875
G01 X2.7686 Y33.4225
G01 X2.7491 Y33.4579
G01 X2.7305 Y33.4939
G01 X2.7127 Y33.5303
G01 X2.6287 Y33.7078
G01 X2.6119 Y33.7446
G01 X2.5959 Y33.7818
G01 X2.5809 Y33.8194
G01 X2.5668 Y33.8574
G01 X2.5006 Y34.0423
G01 X2.4874 Y34.0806
G01 X2.4752 Y34.1192
G01 X2.4639 Y34.1581
G01 X2.4536 Y34.1972
G01 X2.4059 Y34.3877
G01 X2.3965 Y34.4271
G01 X2.3882 Y34.4667
G01 X2.3807 Y34.5065
G01 X2.3743 Y34.5465
G01 X2.3455 Y34.7408
G01 X2.3400 Y34.7809
G01 X2.3356 Y34.8211
G01 X2.3321 Y34.8615
G01 X2.3296 Y34.9019
G01 X2.3200 Y35.0980
G01 X2.3185 Y35.1385
G01 X2.3180 Y35.1790
G01 X2.3185 Y35.2195
G01 X2.3200 Y35.2600
G01 X2.3296 Y35.4561
G01 X2.3321 Y35.4965
G01 X2.3356 Y35.5369
G01 X2.3400 Y35.5771
G01 X2.3455 Y35.6172
G01 X2.3743 Y35.8115
G01 X2.3807 Y35.8515
G01 X2.3882 Y35.8913
G01 X2.3965 Y35.9309
G01 X2.4059 Y35.9703
G01 X2.4536 Y36.1608
G01 X2.4639 Y36.1999
G01 X2.4752 Y36.2388
G01 X2.4874 Y36.2774
G01 X2.5006 Y36.3157
G01 X2.5668 Y36.5006
G01 X2.5809 Y36.5386
G01 X2.5959 Y36.5762
G01 X2.6119 Y36.6134
G01 X2.6287 Y36.6502
G01 X2.7127 Y36.8277
G01 X2.7305 Y36.8641
G01 X2.7491 Y36.9001
G01 X2.7686 Y36.9355
G01 X2.7890 Y36.9705
G01 X2.8900 Y37.1390
G01 X2.9112 Y37.1734
G01 X2.9333 Y37.2074
G01 X2.9562 Y37.2408
G01 X2.9799 Y37.2736
G01 X3.0969 Y37.4313
G01 X3.1214 Y37.4636
G01 X3.1467 Y37.4952
G01 X3.1728 Y37.5262
G01 X3.1996 Y37.5565
G01 X3.3315 Y37.7020
G01 X3.3591 Y37.7317
G01 X3.3874 Y37.7606
G01 X13.3670 Y47.7403
G01 X13.3670 Y52.8914
G01 X13.3580 Y52.9077
G01 X13.3394 Y52.9436
G01 X13.3216 Y52.9800
G01 X13.2167 Y53.2018
G01 X13.1999 Y53.2386
G01 X13.1839 Y53.2759
G01 X13.1689 Y53.3135
G01 X13.1548 Y53.3514
G01 X13.0721 Y53.5824
G01 X13.0589 Y53.6207
G01 X13.0467 Y53.6593
G01 X13.0354 Y53.6982
G01 X13.0251 Y53.7374
G01 X12.9655 Y53.9754
G01 X12.9561 Y54.0148
G01 X12.9477 Y54.0544
G01 X12.9403 Y54.0942
G01 X12.9339 Y54.1342
G01 X12.8979 Y54.3769
G01 X12.8924 Y54.4170
G01 X12.8880 Y54.4572
G01 X12.8845 Y54.4976
G01 X12.8820 Y54.5380
G01 X12.8700 Y54.7830
G01 X12.8685 Y54.8235
G01 X12.8680 Y54.8640
G01 X12.8685 Y54.9045
G01 X12.8700 Y54.9450
G01 X12.8820 Y55.1900
G01 X12.8845 Y55.2304
G01 X12.8880 Y55.2708
G01 X12.8924 Y55.3110
G01 X12.8979 Y55.3511
G01 X12.9339 Y55.5938
G01 X12.9403 Y55.6338
G01 X12.9477 Y55.6736
G01 X12.9561 Y55.7132
G01 X12.9655 Y55.7526
G01 X13.0251 Y55.9906
G01 X13.0354 Y56.0298
G01 X13.0467 Y56.0687
G01 X13.0589 Y56.1073
G01 X13.0721 Y56.1456
G01 X13.1548 Y56.3766
G01 X13.1689 Y56.4145
G01 X13.1839 Y56.4521
G01 X13.1999 Y56.4894
G01 X13.2167 Y56.5262
G01 X13.3216 Y56.7480
G01 X13.3394 Y56.7844
G01 X13.3580 Y56.8203
G01 X13.3776 Y56.8558
G01 X13.3979 Y56.8908
G01 X13.5241 Y57.1012
G01 X13.5453 Y57.1357
G01 X13.5674 Y57.1696
G01 X13.5903 Y57.2030
G01 X13.6140 Y57.2358
G01 X13.7602 Y57.4329
G01 X13.7847 Y57.4651
G01 X13.8100 Y57.4967
G01 X13.8361 Y57.5277
G01 X13.8629 Y57.5581
G01 X14.0277 Y57.7398
G01 X14.0552 Y57.7695
G01 X14.0835 Y57.7985
G01 X14.1125 Y57.8268
G01 X14.1422 Y57.8543
G01 X14.3239 Y58.0191
G01 X14.3543 Y58.0459
G01 X14.3853 Y58.0720
G01 X14.4169 Y58.0973
G01 X14.4491 Y58.1218
G01 X14.6462 Y58.2680
G01 X14.6790 Y58.2917
G01 X14.7124 Y58.3146
G01 X14.7463 Y58.3367
G01 X14.7808 Y58.3579
G01 X14.9912 Y58.4841
G01 X15.0262 Y58.5044
G01 X15.0617 Y58.5240
G01 X15.0976 Y58.5426
G01 X15.1340 Y58.5604
G01 X15.3558 Y58.6653
G01 X15.3926 Y58.6821
G01 X15.4299 Y58.6981
G01 X15.4675 Y58.7131
G01 X15.5054 Y58.7272
G01 X15.7364 Y58.8099
G01 X15.7747 Y58.8231
G01 X15.8133 Y58.8353
G01 X15.8522 Y58.8466
G01 X15.8914 Y58.8569
G01 X16.1294 Y58.9165
G01 X16.1688 Y58.9259
G01 X16.2084 Y58.9343
G01 X16.2482 Y58.9417
G01 X16.2882 Y58.9481
G01 X16.5309 Y58.9841
G01 X16.5710 Y58.9896
G01 X16.6112 Y58.9940
G01 X16.6516 Y58.9975
G01 X16.6920 Y59.0000
G01 X16.9370 Y59.0120
G01 X16.9775 Y59.0135
G01 X17.0180 Y59.0140
G01 X17.0585 Y59.0135
G01 X17.0990 Y59.0120
G01 X17.3440 Y59.0000
G01 X17.3844 Y58.9975
G01 X17.4248 Y58.9940
G01 X17.4650 Y58.9896
G01 X17.5051 Y58.9841
G01 X17.7478 Y58.9481
G01 X17.7878 Y58.9417
G01 X17.8276 Y58.9343
G01 X17.8672 Y58.9259
G01 X17.9066 Y58.9165
G01 X18.1446 Y58.8569
G01 X18.1838 Y58.8466
G01 X18.2227 Y58.8353
G01 X18.2613 Y58.8231
G01 X18.2996 Y58.8099
G01 X18.5306 Y58.7272
G01 X18.5685 Y58.7131
G01 X18.6061 Y58.6981
G01 X18.6434 Y58.6821
G01 X18.6802 Y58.6653
G01 X18.9020 Y58.5604
G01 X18.9384 Y58.5426
G01 X18.9743 Y58.5240
G01 X19.0098 Y58.5044
G01 X19.0448 Y58.4841
G01 X19.2552 Y58.3579
G01 X19.2897 Y58.3367
G01 X19.3236 Y58.3146
G01 X19.3570 Y58.2917
G01 X19.3898 Y58.2680
G01 X19.5869 Y58.1218
G01 X19.6191 Y58.0973
G01 X19.6507 Y58.0720
G01 X19.6817 Y58.0459
G01 X19.7121 Y58.0191
G01 X19.8938 Y57.8543
G01 X19.9235 Y57.8268
G01 X19.9525 Y57.7985
G01 X19.9808 Y57.7695
G01 X20.0083 Y57.7398
G01 X20.1731 Y57.5581
G01 X20.1999 Y57.5277
G01 X20.2260 Y57.4967
G01 X20.2513 Y57.4651
G01 X20.2758 Y57.4329
G01 X20.4220 Y57.2358
G01 X20.4457 Y57.2030
G01 X20.4686 Y57.1696
G01 X20.4907 Y57.1357
G01 X20.5119 Y57.1012
G01 X20.5592 Y57.0223
G01 X31.7500 Y57.0223
G01 X31.7905 Y57.0218
G01 X31.8310 Y57.0203
G01 X31.8808 Y57.0178
G01 X31.9212 Y57.0153
G01 X31.9615 Y57.0119
G01 X32.0018 Y57.0074
G01 X32.0419 Y57.0019
G01 X32.0913 Y56.9946
G01 X32.1312 Y56.9882
G01 X32.1711 Y56.9808
G01 X32.2107 Y56.9724
G01 X32.2501 Y56.9630
G01 X32.2985 Y56.9509
G01 X32.3376 Y56.9406
G01 X32.3765 Y56.9293
G01 X32.4151 Y56.9171
G01 X32.4534 Y56.9039
G01 X32.5004 Y56.8871
G01 X32.5383 Y56.8730
G01 X32.5759 Y56.8580
G01 X32.6131 Y56.8420
G01 X32.6500 Y56.8251
G01 X32.6951 Y56.8038
G01 X32.7314 Y56.7861
G01 X32.7674 Y56.7674
G01 X32.8029 Y56.7479
G01 X32.8379 Y56.7275
G01 X32.8806 Y56.7018
G01 X32.9151 Y56.6806
G01 X32.9491 Y56.6585
G01 X32.9825 Y56.6356
G01 X33.0153 Y56.6119
G01 X33.0553 Y56.5822
G01 X33.0876 Y56.5577
G01 X33.1192 Y56.5324
G01 X33.1502 Y56.5063
G01 X33.1805 Y56.4795
G01 X33.2175 Y56.4460
G01 X33.2471 Y56.4184
G01 X33.2761 Y56.3901
G01 X36.7037 Y52.9625
G01 X36.7037 Y55.3720
G01 X36.7042 Y55.4125
G01 X36.7057 Y55.4530
G01 X36.7082 Y55.5028
G01 X36.7107 Y55.5432
G01 X36.7141 Y55.5835
G01 X36.7186 Y55.6238
G01 X36.7241 Y55.6639
G01 X36.7314 Y55.7133
G01 X36.7378 Y55.7532
G01 X36.7452 Y55.7931
G01 X36.7536 Y55.8327
G01 X36.7630 Y55.8721
G01 X36.7751 Y55.9205
G01 X36.7854 Y55.9596
G01 X36.7967 Y55.9985
G01 X36.8089 Y56.0371
G01 X36.8221 Y56.0754
G01 X36.8389 Y56.1224
G01 X36.8530 Y56.1603
G01 X36.8680 Y56.1979
G01 X36.8840 Y56.2351
G01 X36.9009 Y56.2720
G01 X36.9222 Y56.3171
G01 X36.9399 Y56.3534
G01 X36.9586 Y56.3894
G01 X36.9781 Y56.4249
G01 X36.9985 Y56.4599
G01 X37.0242 Y56.5026
G01 X37.0454 Y56.5371
G01 X37.0675 Y56.5711
G01 X37.0904 Y56.6045
G01 X37.1141 Y56.6373
G01 X37.1438 Y56.6773
G01 X37.1683 Y56.7096
G01 X37.1936 Y56.7412
G01 X37.2197 Y56.7722
G01 X37.2465 Y56.8025
G01 X37.2800 Y56.8395
G01 X37.3076 Y56.8691
G01 X37.3359 Y56.8981
G01 X39.8759 Y59.4381
G01 X39.9049 Y59.4664
G01 X39.9345 Y59.4940
G01 X39.9715 Y59.5275
G01 X40.0018 Y59.5543
G01 X40.0328 Y59.5804
G01 X40.0644 Y59.6057
G01 X40.0967 Y59.6302
G01 X40.1367 Y59.6599
G01 X40.1695 Y59.6836
G01 X40.2029 Y59.7065
G01 X40.2369 Y59.7286
G01 X40.2714 Y59.7498
G01 X40.3141 Y59.7755
G01 X40.3491 Y59.7959
G01 X40.3846 Y59.8154
G01 X40.4206 Y59.8341
G01 X40.4569 Y59.8518
G01 X40.5020 Y59.8731
G01 X40.5389 Y59.8900
G01 X40.5761 Y59.9060
G01 X40.6137 Y59.9210
G01 X40.6516 Y59.9351
G01 X40.6986 Y59.9519
G01 X40.7369 Y59.9651
G01 X40.7755 Y59.9773
G01 X40.8144 Y59.9886
G01 X40.8535 Y59.9989
G01 X40.9019 Y60.0110
G01 X40.9413 Y60.0204
G01 X40.9809 Y60.0288
G01 X41.0208 Y60.0362
G01 X41.0607 Y60.0426
G01 X41.1101 Y60.0499
G01 X41.1502 Y60.0554
G01 X41.1905 Y60.0599
G01 X41.2308 Y60.0633
G01 X41.2712 Y60.0658
G01 X41.3210 Y60.0683
G01 X41.3615 Y60.0698
G01 X41.4020 Y60.0703
G01 X60.4520 Y60.0703
G01 X60.4925 Y60.0698
G01 X60.5330 Y60.0683
G01 X60.5828 Y60.0658
G01 X60.6232 Y60.0633
G01 X60.6635 Y60.0599
G01 X60.7038 Y60.0554
G01 X60.7439 Y60.0499
G01 X60.7933 Y60.0426
G01 X60.8332 Y60.0362
G01 X60.8731 Y60.0288
G01 X60.9127 Y60.0204
G01 X60.9521 Y60.0110
G01 X61.0005 Y59.9989
G01 X61.0396 Y59.9886
G01 X61.0785 Y59.9773
G01 X61.1171 Y59.9651
G01 X61.1554 Y59.9519
G01 X61.2024 Y59.9351
G01 X61.2403 Y59.9210
G01 X61.2779 Y59.9060
G01 X61.3151 Y59.8900
G01 X61.3520 Y59.8731
G01 X61.3971 Y59.8518
G01 X61.4334 Y59.8341
G01 X61.4694 Y59.8154
G01 X61.5049 Y59.7959
G01 X61.5399 Y59.7755
G01 X61.5826 Y59.7498
G01 X61.6171 Y59.7286
G01 X61.6511 Y59.7065
G01 X61.6845 Y59.6836
G01 X61.7173 Y59.6599
G01 X61.7573 Y59.6302
G01 X61.7896 Y59.6057
G01 X61.8212 Y59.5804
G01 X61.8522 Y59.5543
G01 X61.8825 Y59.5275
G01 X61.9195 Y59.4940
G01 X61.9491 Y59.4664
G01 X61.9781 Y59.4381
G01 X63.2481 Y58.1681
G01 X63.2764 Y58.1391
G01 X63.3040 Y58.1095
G01 X63.3375 Y58.0725
G01 X63.3643 Y58.0422
G01 X63.3904 Y58.0112
G01 X63.4157 Y57.9796
G01 X63.4402 Y57.9473
G01 X63.4699 Y57.9073
G01 X63.4936 Y57.8745
G01 X63.5165 Y57.8411
G01 X63.5386 Y57.8071
G01 X63.5598 Y57.7726
G01 X63.5855 Y57.7299
G01 X63.6059 Y57.6949
G01 X63.6254 Y57.6594
G01 X63.6441 Y57.6234
G01 X63.6618 Y57.5871
G01 X63.6831 Y57.5420
G01 X63.7000 Y57.5051
G01 X63.7160 Y57.4679
G01 X63.7310 Y57.4303
G01 X63.7451 Y57.3924
G01 X63.7619 Y57.3454
G01 X63.7751 Y57.3071
G01 X63.7873 Y57.2685
G01 X63.7986 Y57.2296
G01 X63.8089 Y57.1905
G01 X63.8210 Y57.1421
G01 X63.8304 Y57.1027
G01 X63.8388 Y57.0631
G01 X63.8462 Y57.0232
G01 X63.8526 Y56.9833
G01 X63.8599 Y56.9339
G01 X63.8654 Y56.8938
G01 X63.8699 Y56.8535
G01 X63.8733 Y56.8132
G01 X63.8758 Y56.7728
G01 X63.8783 Y56.7230
G01 X63.8798 Y56.6825
G01 X63.8803 Y56.6420
G01 X63.8803 Y42.8208
G01 X63.8798 Y42.7803
G01 X63.8783 Y42.7398
G01 X63.8747 Y42.6720
G01 X63.8783 Y42.6042
G01 X63.8798 Y42.5637
G01 X63.8803 Y42.5232
G01 X63.8803 Y32.7878
G01 X63.8798 Y32.7473
G01 X63.8783 Y32.7068
G01 X63.8758 Y32.6570
G01 X63.8733 Y32.6166
G01 X63.8699 Y32.5762
G01 X63.8654 Y32.5360
G01 X63.8599 Y32.4959
G01 X63.8526 Y32.4465
G01 X63.8462 Y32.4065
G01 X63.8388 Y32.3667
G01 X63.8304 Y32.3271
G01 X63.8210 Y32.2877
G01 X63.8089 Y32.2393
G01 X63.7986 Y32.2002
G01 X63.7873 Y32.1613
G01 X63.7751 Y32.1227
G01 X63.7619 Y32.0844
G01 X63.7451 Y32.0374
G01 X63.7310 Y31.9995
G01 X63.7160 Y31.9619
G01 X63.7000 Y31.9246
G01 X63.6831 Y31.8878
G01 X63.6618 Y31.8427
G01 X63.6441 Y31.8063
G01 X63.6254 Y31.7704
G01 X63.6059 Y31.7349
G01 X63.5855 Y31.6999
G01 X63.5598 Y31.6571
G01 X63.5386 Y31.6227
G01 X63.5165 Y31.5887
G01 X63.4936 Y31.5553
G01 X63.4699 Y31.5225
G01 X63.4402 Y31.4825
G01 X63.4157 Y31.4502
G01 X63.3904 Y31.4186
G01 X63.3643 Y31.3876
G01 X63.3375 Y31.3573
G01 X63.3040 Y31.3203
G01 X63.2764 Y31.2907
G01 X63.2481 Y31.2617
G01 X63.0993 Y31.1129
G01 X63.0703 Y31.0846
G01 X63.0407 Y31.0570
G01 X63.0037 Y31.0235
G01 X62.9734 Y30.9967
G01 X62.9424 Y30.9706
G01 X62.9108 Y30.9453
G01 X62.8785 Y30.9208
G01 X62.8385 Y30.8911
G01 X62.8057 Y30.8674
G01 X62.7723 Y30.8445
G01 X62.7383 Y30.8224
G01 X62.7039 Y30.8012
G01 X62.6611 Y30.7755
G01 X62.6261 Y30.7551
G01 X62.5906 Y30.7356
G01 X62.5547 Y30.7169
G01 X62.5183 Y30.6992
G01 X62.4732 Y30.6779
G01 X62.4364 Y30.6610
G01 X62.3991 Y30.6450
G01 X62.3615 Y30.6300
G01 X62.3236 Y30.6159
G01 X62.2766 Y30.5991
G01 X62.2383 Y30.5859
G01 X62.1997 Y30.5737
G01 X62.1608 Y30.5624
G01 X62.1217 Y30.5521
G01 X62.0733 Y30.5400
G01 X62.0339 Y30.5306
G01 X61.9943 Y30.5222
G01 X61.9545 Y30.5148
G01 X61.9145 Y30.5084
G01 X61.8651 Y30.5011
G01 X61.8250 Y30.4956
G01 X61.7848 Y30.4911
G01 X61.7444 Y30.4877
G01 X61.7040 Y30.4852
G01 X61.6542 Y30.4827
G01 X61.6137 Y30.4812
G01 X61.5732 Y30.4807
G01 X57.7917 Y30.4807
G01 X57.7547 Y30.4406
G01 X57.7264 Y30.4116
G01 X57.6974 Y30.3833
G01 X57.6677 Y30.3558
G01 X57.5587 Y30.2569
G01 X57.5283 Y30.2301
G01 X57.4973 Y30.2040
G01 X57.4657 Y30.1787
G01 X57.4335 Y30.1542
G01 X57.3591 Y30.0990
G01 X57.4335 Y30.0438
G01 X57.4657 Y30.0193
G01 X57.4973 Y29.9940
G01 X57.5283 Y29.9679
G01 X57.5587 Y29.9411
G01 X57.6677 Y29.8422
G01 X57.6974 Y29.8147
G01 X57.7264 Y29.7864
G01 X57.7547 Y29.7574
G01 X57.7822 Y29.7277
G01 X57.8811 Y29.6187
G01 X57.9079 Y29.5883
G01 X57.9340 Y29.5573
G01 X57.9593 Y29.5257
G01 X57.9838 Y29.4935
G01 X58.0715 Y29.3753
G01 X58.0952 Y29.3424
G01 X58.1181 Y29.3090
G01 X58.1402 Y29.2751
G01 X58.1615 Y29.2406
G01 X58.2371 Y29.1144
G01 X58.2575 Y29.0794
G01 X58.2771 Y29.0439
G01 X58.2957 Y29.0080
G01 X58.3135 Y28.9716
G01 X58.3764 Y28.8385
G01 X58.3933 Y28.8017
G01 X58.4092 Y28.7645
G01 X58.4243 Y28.7269
G01 X58.4384 Y28.6889
G01 X58.4880 Y28.5503
G01 X58.5011 Y28.5120
G01 X58.5134 Y28.4734
G01 X58.5246 Y28.4345
G01 X58.5350 Y28.3953
G01 X58.5707 Y28.2526
G01 X58.5801 Y28.2132
G01 X58.5885 Y28.1735
G01 X58.5959 Y28.1337
G01 X58.6023 Y28.0937
G01 X58.6239 Y27.9481
G01 X58.6294 Y27.9080
G01 X58.6338 Y27.8678
G01 X58.6373 Y27.8274
G01 X58.6398 Y27.7870
G01 X58.6470 Y27.6400
G01 X58.6485 Y27.5995
G01 X58.6490 Y27.5590
G01 X58.6485 Y27.5185
G01 X58.6470 Y27.4780
G01 X58.6398 Y27.3310
G01 X58.6373 Y27.2906
G01 X58.6338 Y27.2502
G01 X58.6294 Y27.2100
G01 X58.6239 Y27.1699
G01 X58.6023 Y27.0243
G01 X58.5959 Y26.9843
G01 X58.5885 Y26.9445
G01 X58.5801 Y26.9048
G01 X58.5707 Y26.8654
G01 X58.5350 Y26.7227
G01 X58.5246 Y26.6835
G01 X58.5134 Y26.6446
G01 X58.5011 Y26.6060
G01 X58.4880 Y26.5677
G01 X58.4384 Y26.4291
G01 X58.4243 Y26.3911
G01 X58.4092 Y26.3535
G01 X58.3933 Y26.3163
G01 X58.3764 Y26.2795
G01 X58.3135 Y26.1464
G01 X58.2957 Y26.1100
G01 X58.2771 Y26.0741
G01 X58.2575 Y26.0386
G01 X58.2371 Y26.0036
G01 X58.1615 Y25.8774
G01 X58.1402 Y25.8429
G01 X58.1181 Y25.8090
G01 X58.0952 Y25.7756
G01 X58.0715 Y25.7427
G01 X57.9838 Y25.6245
G01 X57.9593 Y25.5923
G01 X57.9340 Y25.5607
G01 X57.9079 Y25.5297
G01 X57.8811 Y25.4993
G01 X57.7822 Y25.3903
G01 X57.7547 Y25.3606
G01 X57.7264 Y25.3316
G01 X57.6974 Y25.3033
G01 X57.6677 Y25.2758
G01 X57.5587 Y25.1769
G01 X57.5283 Y25.1501
G01 X57.4973 Y25.1240
G01 X57.4657 Y25.0987
G01 X57.4335 Y25.0742
G01 X57.3153 Y24.9865
G01 X57.2824 Y24.9628
G01 X57.2490 Y24.9399
G01 X57.2151 Y24.9178
G01 X57.1806 Y24.8965
G01 X57.0544 Y24.8209
G01 X57.0194 Y24.8005
G01 X56.9839 Y24.7809
G01 X56.9480 Y24.7623
G01 X56.9116 Y24.7445
G01 X56.7785 Y24.6816
G01 X56.7417 Y24.6647
G01 X56.7045 Y24.6488
G01 X56.6669 Y24.6337
G01 X56.6289 Y24.6196
G01 X56.4903 Y24.5700
G01 X56.4520 Y24.5569
G01 X56.4134 Y24.5446
G01 X56.3745 Y24.5334
G01 X56.3353 Y24.5230
G01 X56.1926 Y24.4873
G01 X56.1532 Y24.4779
G01 X56.1135 Y24.4695
G01 X56.0737 Y24.4621
G01 X56.0337 Y24.4557
G01 X55.8881 Y24.4341
G01 X55.8480 Y24.4286
G01 X55.8078 Y24.4242
G01 X55.7674 Y24.4207
G01 X55.7270 Y24.4182
G01 X55.5800 Y24.4110
G01 X55.5395 Y24.4095
G01 X55.4990 Y24.4090
G01 X55.4585 Y24.4095
G01 X55.4180 Y24.4110
G01 X55.2710 Y24.4182
G01 X55.2306 Y24.4207
G01 X55.1902 Y24.4242
G01 X55.1500 Y24.4286
G01 X55.1099 Y24.4341
G01 X54.9643 Y24.4557
G01 X54.9243 Y24.4621
G01 X54.8845 Y24.4695
G01 X54.8448 Y24.4779
G01 X54.8054 Y24.4873
G01 X54.6627 Y24.5230
G01 X54.6235 Y24.5334
G01 X54.5846 Y24.5446
G01 X54.5460 Y24.5569
G01 X54.5077 Y24.5700
G01 X54.3691 Y24.6196
G01 X54.3311 Y24.6337
G01 X54.2935 Y24.6488
G01 X54.2563 Y24.6647
G01 X54.2195 Y24.6816
G01 X54.0864 Y24.7445
G01 X54.0500 Y24.7623
G01 X54.0141 Y24.7809
G01 X53.9786 Y24.8005
G01 X53.9436 Y24.8209
G01 X53.8174 Y24.8965
G01 X53.7829 Y24.9178
G01 X53.7490 Y24.9399
G01 X53.7156 Y24.9628
G01 X53.6827 Y24.9865
G01 X53.5645 Y25.0742
G01 X53.5323 Y25.0987
G01 X53.5007 Y25.1240
G01 X53.4697 Y25.1501
G01 X53.4393 Y25.1769
G01 X53.3303 Y25.2758
G01 X53.3006 Y25.3033
G01 X53.2716 Y25.3316
G01 X53.2433 Y25.3606
G01 X53.2158 Y25.3903
G01 X53.1169 Y25.4993
G01 X53.0883 Y25.5317
G01 X47.1163 Y25.5317
G01 X47.1163 Y20.7596
G01 X47.1478 Y20.7655
G01 X47.1878 Y20.7719
G01 X47.2849 Y20.7863
G01 X47.3250 Y20.7918
G01 X47.3653 Y20.7962
G01 X47.4056 Y20.7997
G01 X47.4460 Y20.8022
G01 X47.5440 Y20.8070
G01 X47.5845 Y20.8085
G01 X47.6250 Y20.8090
G01 X47.6655 Y20.8085
G01 X47.7060 Y20.8070
G01 X47.8040 Y20.8022
G01 X47.8444 Y20.7997
G01 X47.8847 Y20.7962
G01 X47.9250 Y20.7918
G01 X47.9651 Y20.7863
G01 X48.0622 Y20.7719
G01 X48.1022 Y20.7655
G01 X48.1420 Y20.7581
G01 X48.1816 Y20.7497
G01 X48.2210 Y20.7403
G01 X48.3162 Y20.7165
G01 X48.3554 Y20.7062
G01 X48.3943 Y20.6949
G01 X48.4329 Y20.6827
G01 X48.4712 Y20.6695
G01 X48.5636 Y20.6364
G01 X48.6015 Y20.6223
G01 X48.6391 Y20.6073
G01 X48.6763 Y20.5913
G01 X48.7131 Y20.5745
G01 X48.8019 Y20.5325
G01 X48.8383 Y20.5147
G01 X48.8742 Y20.4961
G01 X48.9097 Y20.4766
G01 X48.9447 Y20.4562
G01 X49.0288 Y20.4057
G01 X49.0633 Y20.3845
G01 X49.0973 Y20.3624
G01 X49.1307 Y20.3395
G01 X49.1635 Y20.3158
G01 X49.2423 Y20.2573
G01 X49.2745 Y20.2328
G01 X49.3061 Y20.2075
G01 X49.3371 Y20.1814
G01 X49.3675 Y20.1546
G01 X49.4402 Y20.0887
G01 X49.4698 Y20.0611
G01 X49.4988 Y20.0328
G01 X49.5271 Y20.0038
G01 X49.5547 Y19.9742
G01 X49.6206 Y19.9015
G01 X49.6474 Y19.8711
G01 X49.6735 Y19.8401
G01 X49.6988 Y19.8085
G01 X49.7233 Y19.7763
G01 X49.7818 Y19.6975
G01 X49.8055 Y19.6647
G01 X49.8284 Y19.6313
G01 X49.8505 Y19.5973
G01 X49.8717 Y19.5628
G01 X49.9222 Y19.4787
G01 X49.9426 Y19.4437
G01 X49.9621 Y19.4082
G01 X49.9807 Y19.3723
G01 X49.9985 Y19.3359
G01 X50.0405 Y19.2471
G01 X50.0573 Y19.2103
G01 X50.0733 Y19.1731
G01 X50.0883 Y19.1355
G01 X50.1024 Y19.0976
G01 X50.1355 Y19.0052
G01 X50.1487 Y18.9669
G01 X50.1609 Y18.9283
G01 X50.1722 Y18.8894
G01 X50.1825 Y18.8502
G01 X50.2063 Y18.7550
G01 X50.2157 Y18.7156
G01 X50.2241 Y18.6760
G01 X50.2315 Y18.6362
G01 X50.2379 Y18.5962
G01 X50.2523 Y18.4991
G01 X50.2578 Y18.4590
G01 X50.2622 Y18.4187
G01 X50.2657 Y18.3784
G01 X50.2682 Y18.3380
G01 X50.2730 Y18.2400
G01 X50.2745 Y18.1995
G01 X50.2750 Y18.1590
G01 X50.2750 Y17.9090
G01 X50.2745 Y17.8685
G01 X50.2730 Y17.8280
G01 X50.2682 Y17.7300
G01 X50.2657 Y17.6896
G01 X50.2622 Y17.6493
G01 X50.2578 Y17.6090
G01 X50.2523 Y17.5689
G01 X50.2379 Y17.4718
G01 X50.2315 Y17.4318
G01 X50.2241 Y17.3920
G01 X50.2157 Y17.3524
G01 X50.2063 Y17.3130
G01 X50.1825 Y17.2178
G01 X50.1722 Y17.1786
G01 X50.1609 Y17.1397
G01 X50.1487 Y17.1011
G01 X50.1355 Y17.0628
G01 X50.1024 Y16.9704
G01 X50.0883 Y16.9325
G01 X50.0733 Y16.8949
G01 X50.0573 Y16.8577
G01 X50.0405 Y16.8209
G01 X49.9985 Y16.7321
G01 X49.9807 Y16.6957
G01 X49.9621 Y16.6598
G01 X49.9426 Y16.6243
G01 X49.9222 Y16.5893
G01 X49.8717 Y16.5052
G01 X49.8505 Y16.4707
G01 X49.8284 Y16.4367
G01 X49.8055 Y16.4033
G01 X49.7818 Y16.3705
G01 X49.7233 Y16.2917
G01 X49.6988 Y16.2595
G01 X49.6735 Y16.2279
G01 X49.6474 Y16.1969
G01 X49.6206 Y16.1665
G01 X49.5547 Y16.0938
G01 X49.5271 Y16.0642
G01 X49.4988 Y16.0352
G01 X49.4698 Y16.0069
G01 X49.4402 Y15.9793
G01 X49.3675 Y15.9134
G01 X49.3371 Y15.8866
G01 X49.3061 Y15.8605
G01 X49.2745 Y15.8352
G01 X49.2423 Y15.8107
G01 X49.1635 Y15.7522
G01 X49.1307 Y15.7285
G01 X49.0973 Y15.7056
G01 X49.0633 Y15.6835
G01 X49.0288 Y15.6623
G01 X48.9447 Y15.6118
G01 X48.9097 Y15.5914
G01 X48.8742 Y15.5719
G01 X48.8383 Y15.5533
G01 X48.8019 Y15.5355
G01 X48.7131 Y15.4935
G01 X48.6763 Y15.4767
G01 X48.6391 Y15.4607
G01 X48.6015 Y15.4457
G01 X48.5636 Y15.4316
G01 X48.4712 Y15.3985
G01 X48.4329 Y15.3853
G01 X48.3943 Y15.3731
G01 X48.3554 Y15.3618
G01 X48.3162 Y15.3515
G01 X48.2210 Y15.3277
G01 X48.1816 Y15.3183
G01 X48.1420 Y15.3099
G01 X48.1022 Y15.3025
G01 X48.0622 Y15.2961
G01 X47.9651 Y15.2817
G01 X47.9250 Y15.2762
G01 X47.8847 Y15.2718
G01 X47.8444 Y15.2683
G01 X47.8040 Y15.2658
G01 X47.7060 Y15.2610
G01 X47.6655 Y15.2595
G01 X47.6250 Y15.2590
G01 X47.5845 Y15.2595
G01 X47.5440 Y15.2610
G01 X47.4460 Y15.2658
G01 X47.4056 Y15.2683
G01 X47.3653 Y15.2718
G01 X47.3250 Y15.2762
G01 X47.2849 Y15.2817
G01 X47.1878 Y15.2961
G01 X47.1478 Y15.3025
G01 X47.1080 Y15.3099
G01 X47.0684 Y15.3183
G01 X47.0290 Y15.3277
G01 X46.9338 Y15.3515
G01 X46.8946 Y15.3618
G01 X46.8557 Y15.3731
G01 X46.8171 Y15.3853
G01 X46.7788 Y15.3985
G01 X46.6864 Y15.4316
G01 X46.6485 Y15.4457
G01 X46.6109 Y15.4607
G01 X46.5737 Y15.4767
G01 X46.5369 Y15.4935
G01 X46.4481 Y15.5355
G01 X46.4117 Y15.5533
G01 X46.3758 Y15.5719
G01 X46.3550 Y15.5834
G01 X46.3342 Y15.5719
G01 X46.2983 Y15.5533
G01 X46.2619 Y15.5355
G01 X46.1731 Y15.4935
G01 X46.1363 Y15.4767
G01 X46.0991 Y15.4607
G01 X46.0615 Y15.4457
G01 X46.0236 Y15.4316
G01 X45.9312 Y15.3985
G01 X45.8929 Y15.3853
G01 X45.8543 Y15.3731
G01 X45.8154 Y15.3618
G01 X45.7762 Y15.3515
G01 X45.6810 Y15.3277
G01 X45.6416 Y15.3183
G01 X45.6020 Y15.3099
G01 X45.5622 Y15.3025
G01 X45.5222 Y15.2961
G01 X45.4251 Y15.2817
G01 X45.3850 Y15.2762
G01 X45.3447 Y15.2718
G01 X45.3044 Y15.2683
G01 X45.2640 Y15.2658
G01 X45.1660 Y15.2610
G01 X45.1255 Y15.2595
G01 X45.0850 Y15.2590
G01 X45.0445 Y15.2595
G01 X45.0040 Y15.2610
G01 X44.9060 Y15.2658
G01 X44.8656 Y15.2683
G01 X44.8253 Y15.2718
G01 X44.7850 Y15.2762
G01 X44.7449 Y15.2817
G01 X44.6478 Y15.2961
G01 X44.6078 Y15.3025
G01 X44.5680 Y15.3099
G01 X44.5284 Y15.3183
G01 X44.4890 Y15.3277
G01 X44.3938 Y15.3515
G01 X44.3546 Y15.3618
G01 X44.3157 Y15.3731
G01 X44.2771 Y15.3853
G01 X44.2388 Y15.3985
G01 X44.1464 Y15.4316
G01 X44.1085 Y15.4457
G01 X44.0709 Y15.4607
G01 X44.0337 Y15.4767
G01 X43.9969 Y15.4935
G01 X43.9081 Y15.5355
G01 X43.8717 Y15.5533
G01 X43.8358 Y15.5719
G01 X43.8150 Y15.5834
G01 X43.7942 Y15.5719
G01 X43.7583 Y15.5533
G01 X43.7219 Y15.5355
G01 X43.6331 Y15.4935
G01 X43.5963 Y15.4767
G01 X43.5591 Y15.4607
G01 X43.5215 Y15.4457
G01 X43.4836 Y15.4316
G01 X43.3912 Y15.3985
G01 X43.3529 Y15.3853
G01 X43.3143 Y15.3731
G01 X43.2754 Y15.3618
G01 X43.2362 Y15.3515
G01 X43.1410 Y15.3277
G01 X43.1016 Y15.3183
G01 X43.0620 Y15.3099
G01 X43.0222 Y15.3025
G01 X42.9822 Y15.2961
G01 X42.8851 Y15.2817
G01 X42.8450 Y15.2762
G01 X42.8047 Y15.2718
G01 X42.7644 Y15.2683
G01 X42.7240 Y15.2658
G01 X42.6260 Y15.2610
G01 X42.5855 Y15.2595
G01 X42.5450 Y15.2590
G01 X42.5045 Y15.2595
G01 X42.4640 Y15.2610
G01 X42.3660 Y15.2658
G01 X42.3256 Y15.2683
G01 X42.2853 Y15.2718
G01 X42.2450 Y15.2762
G01 X42.2049 Y15.2817
G01 X42.1078 Y15.2961
G01 X42.0678 Y15.3025
G01 X42.0280 Y15.3099
G01 X41.9884 Y15.3183
G01 X41.9490 Y15.3277
G01 X41.8538 Y15.3515
G01 X41.8146 Y15.3618
G01 X41.7757 Y15.3731
G01 X41.7371 Y15.3853
G01 X41.6988 Y15.3985
G01 X41.6064 Y15.4316
G01 X41.5685 Y15.4457
G01 X41.5309 Y15.4607
G01 X41.4937 Y15.4767
G01 X41.4569 Y15.4935
G01 X41.3681 Y15.5355
G01 X41.3317 Y15.5533
G01 X41.2958 Y15.5719
G01 X41.2603 Y15.5914
G01 X41.2253 Y15.6118
G01 X41.1412 Y15.6623
G01 X41.1067 Y15.6835
G01 X41.0727 Y15.7056
G01 X41.0393 Y15.7285
G01 X41.0065 Y15.7522
G01 X40.9277 Y15.8107
G01 X40.8955 Y15.8352
G01 X40.8639 Y15.8605
G01 X40.8329 Y15.8866
G01 X40.7740 Y15.9392
G01 X36.1633 Y15.9392
G01 X36.0825 Y15.8792
G01 X36.0497 Y15.8555
G01 X36.0163 Y15.8326
G01 X35.9823 Y15.8105
G01 X35.9478 Y15.7893
G01 X35.8637 Y15.7388
G01 X35.8287 Y15.7184
G01 X35.7932 Y15.6989
G01 X35.7573 Y15.6803
G01 X35.7209 Y15.6625
G01 X35.6321 Y15.6205
G01 X35.5953 Y15.6037
G01 X35.5581 Y15.5877
G01 X35.5205 Y15.5727
G01 X35.4826 Y15.5586
G01 X35.3902 Y15.5255
G01 X35.3519 Y15.5123
G01 X35.3133 Y15.5001
G01 X35.2744 Y15.4888
G01 X35.2352 Y15.4785
G01 X35.1400 Y15.4547
G01 X35.1006 Y15.4453
G01 X35.0610 Y15.4369
G01 X35.0212 Y15.4295
G01 X34.9812 Y15.4231
G01 X34.8841 Y15.4087
G01 X34.8440 Y15.4032
G01 X34.8037 Y15.3988
G01 X34.7634 Y15.3953
G01 X34.7230 Y15.3928
G01 X34.6250 Y15.3880
G01 X34.5845 Y15.3865
G01 X34.5440 Y15.3860
G01 X34.5035 Y15.3865
G01 X34.4630 Y15.3880
G01 X34.3650 Y15.3928
G01 X34.3246 Y15.3953
G01 X34.2843 Y15.3988
G01 X34.2440 Y15.4032
G01 X34.2039 Y15.4087
G01 X34.1068 Y15.4231
G01 X34.0668 Y15.4295
G01 X34.0270 Y15.4369
G01 X33.9874 Y15.4453
G01 X33.9480 Y15.4547
G01 X33.8528 Y15.4785
G01 X33.8136 Y15.4888
G01 X33.7747 Y15.5001
G01 X33.7361 Y15.5123
G01 X33.6978 Y15.5255
G01 X33.6054 Y15.5586
G01 X33.5675 Y15.5727
G01 X33.5299 Y15.5877
G01 X33.4927 Y15.6037
G01 X33.4690 Y15.6145
G01 X33.4690 Y13.6795
G01 X33.4685 Y13.6390
G01 X33.4670 Y13.5985
G01 X33.4645 Y13.5487
G01 X33.4620 Y13.5083
G01 X33.4586 Y13.4680
G01 X33.4541 Y13.4277
G01 X33.4487 Y13.3876
G01 X33.4413 Y13.3382
G01 X33.4349 Y13.2983
G01 X33.4275 Y13.2584
G01 X33.4191 Y13.2188
G01 X33.4097 Y13.1794
G01 X33.3976 Y13.1310
G01 X33.3873 Y13.0919
G01 X33.3760 Y13.0530
G01 X33.3638 Y13.0144
G01 X33.3506 Y12.9761
G01 X33.3338 Y12.9291
G01 X33.3197 Y12.8912
G01 X33.3047 Y12.8536
G01 X33.2887 Y12.8164
G01 X33.2719 Y12.7795
G01 X33.2505 Y12.7344
G01 X33.2328 Y12.6981
G01 X33.2141 Y12.6621
G01 X33.1946 Y12.6266
G01 X33.1742 Y12.5916
G01 X33.1486 Y12.5489
G01 X33.1273 Y12.5144
G01 X33.1052 Y12.4804
G01 X33.0823 Y12.4470
G01 X33.0586 Y12.4142
G01 X33.0289 Y12.3742
G01 X33.0044 Y12.3419
G01 X32.9791 Y12.3103
G01 X32.9530 Y12.2793
G01 X32.9262 Y12.2490
G01 X32.8927 Y12.2120
G01 X32.8651 Y12.1824
G01 X32.8368 Y12.1534
G01 X32.6193 Y11.9359
G01 X32.5903 Y11.9076
G01 X32.5607 Y11.8800
G01 X32.5237 Y11.8465
G01 X32.4934 Y11.8197
G01 X32.4624 Y11.7936
G01 X32.4308 Y11.7683
G01 X32.3985 Y11.7438
G01 X32.3585 Y11.7141
G01 X32.3257 Y11.6904
G01 X32.2923 Y11.6675
G01 X32.2583 Y11.6454
G01 X32.2239 Y11.6242
G01 X32.1811 Y11.5985
G01 X32.1461 Y11.5781
G01 X32.1106 Y11.5586
G01 X32.0747 Y11.5399
G01 X32.0383 Y11.5222
G01 X31.9932 Y11.5009
G01 X31.9564 Y11.4840
G01 X31.9191 Y11.4680
G01 X31.8815 Y11.4530
G01 X31.8436 Y11.4389
G01 X31.7966 Y11.4221
G01 X31.7583 Y11.4089
G01 X31.7197 Y11.3967
G01 X31.6808 Y11.3854
G01 X31.6417 Y11.3751
G01 X31.5933 Y11.3630
G01 X31.5539 Y11.3536
G01 X31.5143 Y11.3452
G01 X31.4745 Y11.3378
G01 X31.4345 Y11.3314
G01 X31.3851 Y11.3241
G01 X31.3450 Y11.3186
G01 X31.3048 Y11.3141
G01 X31.2644 Y11.3107
G01 X31.2240 Y11.3082
G01 X31.1742 Y11.3057
G01 X31.1337 Y11.3042
G01 X31.0932 Y11.3037
G01 X26.5100 Y11.3037
G01 X21.0482 Y5.8419
G01 X21.0705 Y5.7526
G01 X21.0799 Y5.7132
G01 X21.0883 Y5.6736
G01 X21.0957 Y5.6338
G01 X21.1021 Y5.5938
G01 X21.1381 Y5.3511
G01 X21.1436 Y5.3110
G01 X21.1480 Y5.2708
G01 X21.1515 Y5.2304
G01 X21.1540 Y5.1900
G01 X21.1660 Y4.9450
G01 X21.1675 Y4.9045
G01 X21.1680 Y4.8640
G01 X21.1675 Y4.8235
G01 X21.1660 Y4.7830
G01 X21.1540 Y4.5380
G01 X21.1515 Y4.4976
G01 X21.1480 Y4.4572
G01 X21.1436 Y4.4170
G01 X21.1381 Y4.3769
G01 X21.1021 Y4.1342
G01 X21.0957 Y4.0942
G01 X21.0883 Y4.0544
G01 X21.0799 Y4.0148
G01 X21.0705 Y3.9754
G01 X21.0109 Y3.7374
G01 X21.0006 Y3.6982
G01 X20.9893 Y3.6593
G01 X20.9771 Y3.6207
G01 X20.9639 Y3.5824
G01 X20.8812 Y3.3514
G01 X20.8671 Y3.3135
G01 X20.8521 Y3.2759
G01 X20.8361 Y3.2386
G01 X20.8193 Y3.2018
G01 X20.7144 Y2.9800
G01 X20.6966 Y2.9436
G01 X20.6780 Y2.9077
G01 X20.6584 Y2.8722
G01 X20.6381 Y2.8372
G01 X20.5119 Y2.6268
G01 X20.4907 Y2.5923
G01 X20.4686 Y2.5584
G01 X20.4457 Y2.5250
G01 X20.4220 Y2.4922
G01 X20.2758 Y2.2951
G01 X20.2513 Y2.2629
G01 X20.2260 Y2.2313
G01 X20.1999 Y2.2003
G01 X20.1731 Y2.1699
G01 X20.0083 Y1.9882
G01 X19.9808 Y1.9585
G01 X19.9525 Y1.9295
G01 X19.9235 Y1.9012
G01 X19.8938 Y1.8737
G01 X19.7121 Y1.7089
G01 X19.6817 Y1.6821
G01 X19.6507 Y1.6560
G01 X19.6191 Y1.6307
G01 X19.5869 Y1.6062
G01 X19.3898 Y1.4600
G01 X19.3570 Y1.4363
G01 X19.3236 Y1.4134
G01 X19.2897 Y1.3913
G01 X19.2552 Y1.3701
G01 X19.0448 Y1.2439
G01 X19.0098 Y1.2236
G01 X18.9743 Y1.2040
G01 X18.9384 Y1.1854
G01 X18.9020 Y1.1676
G01 X18.6802 Y1.0627
G01 X18.6434 Y1.0459
G01 X18.6061 Y1.0299
G01 X18.5685 Y1.0149
G01 X18.5306 Y1.0008
G01 X18.2996 Y0.9181
G01 X18.2613 Y0.9049
G01 X18.2227 Y0.8927
G01 X18.1838 Y0.8814
G01 X18.1446 Y0.8711
G01 X17.9066 Y0.8115
G01 X17.8672 Y0.8021
G01 X17.8276 Y0.7937
G01 X17.7878 Y0.7863
G01 X17.7478 Y0.7799
G01 X17.5051 Y0.7439
G01 X17.4650 Y0.7384
G01 X17.4248 Y0.7340
G01 X17.3844 Y0.7305
G01 X17.3440 Y0.7280
G01 X17.0990 Y0.7160
G01 X17.0585 Y0.7145
G01 X17.0180 Y0.7140
G01 X16.9775 Y0.7145
G01 X16.9370 Y0.7160
G01 X16.6920 Y0.7280
G01 X16.6516 Y0.7305
G01 X16.6112 Y0.7340
G01 X16.5710 Y0.7384
G01 X16.5309 Y0.7439
G01 X16.2882 Y0.7799
G01 X16.2482 Y0.7863
G01 X16.2084 Y0.7937
G01 X16.1688 Y0.8021
G01 X16.1294 Y0.8115
G01 X15.8914 Y0.8711
G01 X15.8522 Y0.8814
G01 X15.8133 Y0.8927
G01 X15.7747 Y0.9049
G01 X15.7364 Y0.9181
G01 X15.5054 Y1.0008
G01 X15.4675 Y1.0149
G01 X15.4299 Y1.0299
G01 X15.3926 Y1.0459
G01 X15.3558 Y1.0627
G01 X15.1340 Y1.1676
G01 X15.0976 Y1.1854
G01 X15.0617 Y1.2040
G01 X15.0262 Y1.2236
G01 X14.9912 Y1.2439
G01 X14.7808 Y1.3701
G01 X14.7463 Y1.3913
G01 X14.7124 Y1.4134
G01 X14.6790 Y1.4363
G01 X14.6462 Y1.4600
G01 X14.4491 Y1.6062
G01 X14.4169 Y1.6307
G01 X14.3853 Y1.6560
G01 X14.3543 Y1.6821
G01 X14.3239 Y1.7089
G01 X14.1422 Y1.8737
G01 X14.1125 Y1.9012
G01 X14.0835 Y1.9295
G01 X14.0552 Y1.9585
G01 X14.0277 Y1.9882
G01 X13.8629 Y2.1699
G01 X13.8361 Y2.2003
G01 X13.8100 Y2.2313
G01 X13.7847 Y2.2629
G01 X13.7602 Y2.2951
G01 X13.6140 Y2.4922
G01 X13.5903 Y2.5250
G01 X13.5674 Y2.5584
G01 X13.5453 Y2.5923
G01 X13.5241 Y2.6268
G01 X13.3979 Y2.8372
G01 X13.3776 Y2.8722
G01 X13.3580 Y2.9077
G01 X13.3394 Y2.9436
G01 X13.3216 Y2.9800
G01 X13.2167 Y3.2018
G01 X13.1999 Y3.2386
G01 X13.1839 Y3.2759
G01 X13.1689 Y3.3135
G01 X13.1548 Y3.3514
G01 X13.0721 Y3.5824
G01 X13.0589 Y3.6207
G01 X13.0467 Y3.6593
G01 X13.0354 Y3.6982
G01 X13.0251 Y3.7374
G01 X12.9655 Y3.9754
G01 X12.9561 Y4.0148
G01 X12.9477 Y4.0544
G01 X12.9403 Y4.0942
G01 X12.9339 Y4.1342
G01 X12.8979 Y4.3769
G01 X12.8924 Y4.4170
G01 X12.8880 Y4.4572
G01 X12.8845 Y4.4976
G01 X12.8820 Y4.5380
G01 X12.8700 Y4.7830
G01 X12.8685 Y4.8235
G01 X12.8680 Y4.8640
G01 X12.8685 Y4.9045
G01 X12.8700 Y4.9450
G01 X12.8820 Y5.1900
G01 X12.8845 Y5.2304
G01 X12.8880 Y5.2708
G01 X12.8924 Y5.3110
G01 X12.8979 Y5.3511
G01 X12.9339 Y5.5938
G01 X12.9403 Y5.6338
G01 X12.9477 Y5.6736
G01 X12.9561 Y5.7132
G01 X12.9655 Y5.7526
G01 X13.0251 Y5.9906
G01 X13.0354 Y6.0298
G01 X13.0467 Y6.0687
G01 X13.0589 Y6.1073
G01 X13.0721 Y6.1456
G01 X13.1548 Y6.3766
G01 X13.1689 Y6.4145
G01 X13.1839 Y6.4521
G01 X13.1999 Y6.4894
G01 X13.2167 Y6.5262
G01 X13.3216 Y6.7480
G01 X13.3394 Y6.7844
G01 X13.3580 Y6.8203
G01 X13.3670 Y6.8366
G01 X13.3670 Y17.5377
G01 X3.3874 Y27.5174
G00 Z2.0000
G00 X3.5995 Y27.7295
G01 F80.00
G01 Z0.0000
G01 F200.00
G01 X3.5763 Y27.7532
G01 X3.5538 Y27.7775
G01 X3.4219 Y27.9230
G01 X3.4000 Y27.9478
G01 X3.3786 Y27.9731
G01 X3.3579 Y27.9990
G01 X3.3379 Y28.0254
G01 X3.2209 Y28.1831
G01 X3.2015 Y28.2100
G01 X3.1827 Y28.2373
G01 X3.1647 Y28.2651
G01 X3.1473 Y28.2933
G01 X3.0463 Y28.4617
G01 X3.0297 Y28.4903
G01 X3.0137 Y28.5193
G01 X2.9984 Y28.5488
G01 X2.9839 Y28.5785
G01 X2.8999 Y28.7561
G01 X2.8861 Y28.7862
G01 X2.8731 Y28.8166
G01 X2.8608 Y28.8474
G01 X2.8492 Y28.8784
G01 X2.7831 Y29.0633
G01 X2.7723 Y29.0947
G01 X2.7623 Y29.1263
G01 X2.7531 Y29.1581
G01 X2.7446 Y29.1901
G01 X2.6969 Y29.3806
G01 X2.6893 Y29.4128
G01 X2.6824 Y29.4453
G01 X2.6763 Y29.4778
G01 X2.6711 Y29.5105
G01 X2.6422 Y29.7048
G01 X2.6378 Y29.7376
G01 X2.6341 Y29.7705
G01 X2.6313 Y29.8036
G01 X2.6293 Y29.8366
G01 X2.6196 Y30.0328
G01 X2.6184 Y30.0659
G01 X2.6180 Y30.0990
G01 X2.6184 Y30.1321
G01 X2.6196 Y30.1652
G01 X2.6293 Y30.3614
G01 X2.6313 Y30.3944
G01 X2.6341 Y30.4275
G01 X2.6378 Y30.4604
G01 X2.6422 Y30.4932
G01 X2.6711 Y30.6875
G01 X2.6763 Y30.7202
G01 X2.6824 Y30.7527
G01 X2.6893 Y30.7852
G01 X2.6969 Y30.8174
G01 X2.7446 Y31.0079
G01 X2.7531 Y31.0399
G01 X2.7623 Y31.0717
G01 X2.7723 Y31.1033
G01 X2.7831 Y31.1347
G01 X2.8492 Y31.3196
G01 X2.8608 Y31.3506
G01 X2.8731 Y31.3814
G01 X2.8861 Y31.4118
G01 X2.8999 Y31.4419
G01 X2.9839 Y31.6195
G01 X2.9984 Y31.6492
G01 X3.0137 Y31.6787
G01 X3.0297 Y31.7077
G01 X3.0463 Y31.7363
G01 X3.1473 Y31.9047
G01 X3.1647 Y31.9329
G01 X3.1827 Y31.9607
G01 X3.2015 Y31.9880
G01 X3.2209 Y32.0149
G01 X3.3379 Y32.1726
G01 X3.3579 Y32.1990
G01 X3.3786 Y32.2249
G01 X3.4000 Y32.2502
G01 X3.4219 Y32.2750
G01 X3.5538 Y32.4205
G01 X3.5763 Y32.4448
G01 X3.5995 Y32.4685
G01 X3.6232 Y32.4917
G01 X3.6475 Y32.5142
G01 X3.7852 Y32.6390
G01 X3.6475 Y32.7638
G01 X3.6232 Y32.7863
G01 X3.5995 Y32.8095
G01 X3.5763 Y32.8332
G01 X3.5538 Y32.8575
G01 X3.4219 Y33.0030
G01 X3.4000 Y33.0278
G01 X3.3786 Y33.0531
G01 X3.3579 Y33.0790
G01 X3.3379 Y33.1054
G01 X3.2209 Y33.2631
G01 X3.2015 Y33.2900
G01 X3.1827 Y33.3173
G01 X3.1647 Y33.3451
G01 X3.1473 Y33.3733
G01 X3.0463 Y33.5417
G01 X3.0297 Y33.5703
G01 X3.0137 Y33.5993
G01 X2.9984 Y33.6288
G01 X2.9839 Y33.6585
G01 X2.8999 Y33.8361
G01 X2.8861 Y33.8662
G01 X2.8731 Y33.8966
G01 X2.8608 Y33.9274
G01 X2.8492 Y33.9584
G01 X2.7831 Y34.1433
G01 X2.7723 Y34.1747
G01 X2.7623 Y34.2063
G01 X2.7531 Y34.2381
G01 X2.7446 Y34.2701
G01 X2.6969 Y34.4606
G01 X2.6893 Y34.4928
G01 X2.6824 Y34.5253
G01 X2.6763 Y34.5578
G01 X2.6711 Y34.5905
G01 X2.6422 Y34.7848
G01 X2.6378 Y34.8176
G01 X2.6341 Y34.8505
G01 X2.6313 Y34.8836
G01 X2.6293 Y34.9166
G01 X2.6196 Y35.1128
G01 X2.6184 Y35.1459
G01 X2.6180 Y35.1790
G01 X2.6184 Y35.2121
G01 X2.6196 Y35.2452
G01 X2.6293 Y35.4414
G01 X2.6313 Y35.4744
G01 X2.6341 Y35.5075
G01 X2.6378 Y35.5404
G01 X2.6422 Y35.5732
G01 X2.6711 Y35.7675
G01 X2.6763 Y35.8002
G01 X2.6824 Y35.8327
G01 X2.6893 Y35.8652
G01 X2.6969 Y35.8974
G01 X2.7446 Y36.0879
G01 X2.7531 Y36.1199
G01 X2.7623 Y36.1517
G01 X2.7723 Y36.1833
G01 X2.7831 Y36.2147
G01 X2.8492 Y36.3996
G01 X2.8608 Y36.4306
G01 X2.8731 Y36.4614
G01 X2.8861 Y36.4918
G01 X2.8999 Y36.5219
G01 X2.9839 Y36.6995
G01 X2.9984 Y36.7292
G01 X3.0137 Y36.7587
G01 X3.0297 Y36.7877
G01 X3.0463 Y36.8163
G01 X3.1473 Y36.9847
G01 X3.1647 Y37.0129
G01 X3.1827 Y37.0407
G01 X3.2015 Y37.0680
G01 X3.2209 Y37.0949
G01 X3.3379 Y37.2526
G01 X3.3579 Y37.2790
G01 X3.3786 Y37.3049
G01 X3.4000 Y37.3302
G01 X3.4219 Y37.3550
G01 X3.5538 Y37.5005
G01 X3.5763 Y37.5248
G01 X3.5995 Y37.5485
G01 X13.6670 Y47.6160
G01 X13.6670 Y52.9719
G01 X13.6386 Y53.0201
G01 X13.6226 Y53.0491
G01 X13.6073 Y53.0785
G01 X13.5928 Y53.1083
G01 X13.4879 Y53.3301
G01 X13.4741 Y53.3602
G01 X13.4611 Y53.3907
G01 X13.4488 Y53.4214
G01 X13.4372 Y53.4525
G01 X13.3546 Y53.6835
G01 X13.3438 Y53.7148
G01 X13.3338 Y53.7464
G01 X13.3246 Y53.7782
G01 X13.3161 Y53.8103
G01 X13.2565 Y54.0483
G01 X13.2488 Y54.0805
G01 X13.2420 Y54.1129
G01 X13.2359 Y54.1455
G01 X13.2306 Y54.1782
G01 X13.1947 Y54.4209
G01 X13.1902 Y54.4537
G01 X13.1865 Y54.4866
G01 X13.1837 Y54.5196
G01 X13.1817 Y54.5527
G01 X13.1696 Y54.7978
G01 X13.1684 Y54.8309
G01 X13.1680 Y54.8640
G01 X13.1684 Y54.8971
G01 X13.1696 Y54.9302
G01 X13.1817 Y55.1753
G01 X13.1837 Y55.2084
G01 X13.1865 Y55.2414
G01 X13.1902 Y55.2743
G01 X13.1947 Y55.3071
G01 X13.2306 Y55.5498
G01 X13.2359 Y55.5825
G01 X13.2420 Y55.6151
G01 X13.2488 Y55.6475
G01 X13.2565 Y55.6797
G01 X13.3161 Y55.9177
G01 X13.3246 Y55.9498
G01 X13.3338 Y55.9816
G01 X13.3438 Y56.0132
G01 X13.3546 Y56.0445
G01 X13.4372 Y56.2755
G01 X13.4488 Y56.3066
G01 X13.4611 Y56.3373
G01 X13.4741 Y56.3678
G01 X13.4879 Y56.3979
G01 X13.5928 Y56.6197
G01 X13.6073 Y56.6495
G01 X13.6226 Y56.6789
G01 X13.6386 Y56.7079
G01 X13.6553 Y56.7365
G01 X13.7814 Y56.9470
G01 X13.7988 Y56.9752
G01 X13.8168 Y57.0029
G01 X13.8356 Y57.0303
G01 X13.8550 Y57.0571
G01 X14.0011 Y57.2542
G01 X14.0212 Y57.2805
G01 X14.0419 Y57.3064
G01 X14.0632 Y57.3318
G01 X14.0852 Y57.3566
G01 X14.2499 Y57.5384
G01 X14.2725 Y57.5626
G01 X14.2956 Y57.5864
G01 X14.3194 Y57.6095
G01 X14.3436 Y57.6321
G01 X14.5254 Y57.7968
G01 X14.5502 Y57.8188
G01 X14.5756 Y57.8401
G01 X14.6015 Y57.8608
G01 X14.6278 Y57.8809
G01 X14.8249 Y58.0270
G01 X14.8517 Y58.0464
G01 X14.8791 Y58.0652
G01 X14.9068 Y58.0832
G01 X14.9350 Y58.1006
G01 X15.1455 Y58.2267
G01 X15.1741 Y58.2434
G01 X15.2031 Y58.2594
G01 X15.2325 Y58.2747
G01 X15.2623 Y58.2892
G01 X15.4841 Y58.3941
G01 X15.5142 Y58.4079
G01 X15.5447 Y58.4209
G01 X15.5754 Y58.4332
G01 X15.6065 Y58.4448
G01 X15.8375 Y58.5274
G01 X15.8688 Y58.5382
G01 X15.9004 Y58.5482
G01 X15.9322 Y58.5574
G01 X15.9643 Y58.5659
G01 X16.2023 Y58.6255
G01 X16.2345 Y58.6332
G01 X16.2669 Y58.6400
G01 X16.2995 Y58.6461
G01 X16.3322 Y58.6514
G01 X16.5749 Y58.6873
G01 X16.6077 Y58.6918
G01 X16.6406 Y58.6955
G01 X16.6736 Y58.6983
G01 X16.7067 Y58.7003
G01 X16.9518 Y58.7124
G01 X16.9849 Y58.7136
G01 X17.0180 Y58.7140
G01 X17.0511 Y58.7136
G01 X17.0842 Y58.7124
G01 X17.3293 Y58.7003
G01 X17.3624 Y58.6983
G01 X17.3954 Y58.6955
G01 X17.4283 Y58.6918
G01 X17.4611 Y58.6873
G01 X17.7038 Y58.6514
G01 X17.7365 Y58.6461
G01 X17.7691 Y58.6400
G01 X17.8015 Y58.6332
G01 X17.8337 Y58.6255
G01 X18.0717 Y58.5659
G01 X18.1038 Y58.5574
G01 X18.1356 Y58.5482
G01 X18.1672 Y58.5382
G01 X18.1985 Y58.5274
G01 X18.4295 Y58.4448
G01 X18.4606 Y58.4332
G01 X18.4913 Y58.4209
G01 X18.5218 Y58.4079
G01 X18.5519 Y58.3941
G01 X18.7737 Y58.2892
G01 X18.8035 Y58.2747
G01 X18.8329 Y58.2594
G01 X18.8619 Y58.2434
G01 X18.8905 Y58.2267
G01 X19.1010 Y58.1006
G01 X19.1292 Y58.0832
G01 X19.1569 Y58.0652
G01 X19.1843 Y58.0464
G01 X19.2111 Y58.0270
G01 X19.4082 Y57.8809
G01 X19.4345 Y57.8608
G01 X19.4604 Y57.8401
G01 X19.4858 Y57.8188
G01 X19.5106 Y57.7968
G01 X19.6924 Y57.6321
G01 X19.7166 Y57.6095
G01 X19.7404 Y57.5864
G01 X19.7635 Y57.5626
G01 X19.7861 Y57.5384
G01 X19.9508 Y57.3566
G01 X19.9728 Y57.3318
G01 X19.9941 Y57.3064
G01 X20.0148 Y57.2805
G01 X20.0349 Y57.2542
G01 X20.1810 Y57.0571
G01 X20.2004 Y57.0303
G01 X20.2192 Y57.0029
G01 X20.2372 Y56.9752
G01 X20.2546 Y56.9470
G01 X20.3891 Y56.7223
G01 X31.7500 Y56.7223
G01 X31.7831 Y56.7218
G01 X31.8162 Y56.7206
G01 X31.8991 Y56.7161
G01 X31.9321 Y56.7133
G01 X31.9651 Y56.7097
G01 X31.9979 Y56.7052
G01 X32.0800 Y56.6926
G01 X32.1125 Y56.6865
G01 X32.1449 Y56.6797
G01 X32.1772 Y56.6720
G01 X32.2576 Y56.6515
G01 X32.2894 Y56.6422
G01 X32.3210 Y56.6322
G01 X32.3523 Y56.6215
G01 X32.4304 Y56.5931
G01 X32.4611 Y56.5808
G01 X32.4916 Y56.5677
G01 X32.5668 Y56.5326
G01 X32.5966 Y56.5181
G01 X32.6260 Y56.5028
G01 X32.6550 Y56.4869
G01 X32.7264 Y56.4445
G01 X32.7546 Y56.4272
G01 X32.7824 Y56.4091
G01 X32.8097 Y56.3903
G01 X32.8766 Y56.3412
G01 X32.9030 Y56.3212
G01 X32.9289 Y56.3004
G01 X32.9542 Y56.2791
G01 X32.9790 Y56.2572
G01 X33.0403 Y56.2011
G01 X33.0640 Y56.1780
G01 X37.0037 Y52.2382
G01 X37.0037 Y55.3720
G01 X37.0042 Y55.4051
G01 X37.0078 Y55.4881
G01 X37.0099 Y55.5211
G01 X37.0127 Y55.5541
G01 X37.0163 Y55.5871
G01 X37.0281 Y55.6692
G01 X37.0334 Y55.7020
G01 X37.0395 Y55.7345
G01 X37.0463 Y55.7669
G01 X37.0661 Y55.8476
G01 X37.0745 Y55.8796
G01 X37.0838 Y55.9114
G01 X37.0938 Y55.9430
G01 X37.1045 Y55.9743
G01 X37.1329 Y56.0524
G01 X37.1452 Y56.0831
G01 X37.1583 Y56.1136
G01 X37.1934 Y56.1888
G01 X37.2079 Y56.2186
G01 X37.2232 Y56.2480
G01 X37.2391 Y56.2770
G01 X37.2558 Y56.3056
G01 X37.2988 Y56.3766
G01 X37.3169 Y56.4044
G01 X37.3357 Y56.4317
G01 X37.3551 Y56.4586
G01 X37.4048 Y56.5250
G01 X37.4256 Y56.5509
G01 X37.4469 Y56.5762
G01 X37.4688 Y56.6010
G01 X37.5249 Y56.6623
G01 X37.5480 Y56.6860
G01 X40.0880 Y59.2260
G01 X40.1117 Y59.2491
G01 X40.1360 Y59.2717
G01 X40.1978 Y59.3271
G01 X40.2231 Y59.3484
G01 X40.2490 Y59.3692
G01 X40.2754 Y59.3892
G01 X40.3423 Y59.4383
G01 X40.3696 Y59.4571
G01 X40.3974 Y59.4752
G01 X40.4684 Y59.5182
G01 X40.4970 Y59.5349
G01 X40.5260 Y59.5508
G01 X40.5554 Y59.5661
G01 X40.6303 Y59.6020
G01 X40.6604 Y59.6157
G01 X40.6909 Y59.6288
G01 X40.7216 Y59.6411
G01 X40.7997 Y59.6695
G01 X40.8310 Y59.6802
G01 X40.8626 Y59.6902
G01 X40.8944 Y59.6995
G01 X40.9748 Y59.7200
G01 X41.0071 Y59.7277
G01 X41.0395 Y59.7345
G01 X41.0720 Y59.7406
G01 X41.1541 Y59.7532
G01 X41.1869 Y59.7577
G01 X41.2199 Y59.7613
G01 X41.2529 Y59.7641
G01 X41.3358 Y59.7686
G01 X41.3689 Y59.7698
G01 X41.4020 Y59.7703
G01 X60.4520 Y59.7703
G01 X60.4851 Y59.7698
G01 X60.5182 Y59.7686
G01 X60.6011 Y59.7641
G01 X60.6341 Y59.7613
G01 X60.6671 Y59.7577
G01 X60.6999 Y59.7532
G01 X60.7820 Y59.7406
G01 X60.8145 Y59.7345
G01 X60.8469 Y59.7277
G01 X60.9276 Y59.7079
G01 X60.9596 Y59.6995
G01 X60.9914 Y59.6902
G01 X61.0230 Y59.6802
G01 X61.1013 Y59.6526
G01 X61.1324 Y59.6411
G01 X61.1631 Y59.6288
G01 X61.1936 Y59.6157
G01 X61.2237 Y59.6020
G01 X61.2986 Y59.5661
G01 X61.3280 Y59.5508
G01 X61.3570 Y59.5349
G01 X61.3856 Y59.5182
G01 X61.4566 Y59.4752
G01 X61.4844 Y59.4571
G01 X61.5117 Y59.4383
G01 X61.5786 Y59.3892
G01 X61.6050 Y59.3692
G01 X61.6309 Y59.3484
G01 X61.6562 Y59.3271
G01 X61.6810 Y59.3052
G01 X61.7423 Y59.2491
G01 X61.7660 Y59.2260
G01 X63.0360 Y57.9560
G01 X63.0591 Y57.9323
G01 X63.1152 Y57.8710
G01 X63.1371 Y57.8462
G01 X63.1584 Y57.8209
G01 X63.1792 Y57.7950
G01 X63.1992 Y57.7686
G01 X63.2483 Y57.7017
G01 X63.2671 Y57.6744
G01 X63.2852 Y57.6466
G01 X63.3282 Y57.5756
G01 X63.3449 Y57.5470
G01 X63.3608 Y57.5180
G01 X63.3761 Y57.4886
G01 X63.3906 Y57.4588
G01 X63.4257 Y57.3836
G01 X63.4388 Y57.3531
G01 X63.4511 Y57.3224
G01 X63.4626 Y57.2913
G01 X63.4902 Y57.2130
G01 X63.5002 Y57.1814
G01 X63.5095 Y57.1496
G01 X63.5300 Y57.0692
G01 X63.5377 Y57.0369
G01 X63.5445 Y57.0045
G01 X63.5506 Y56.9720
G01 X63.5632 Y56.8899
G01 X63.5677 Y56.8571
G01 X63.5713 Y56.8241
G01 X63.5741 Y56.7911
G01 X63.5762 Y56.7581
G01 X63.5798 Y56.6751
G01 X63.5803 Y56.6420
G01 X63.5803 Y42.8208
G01 X63.5798 Y42.7877
G01 X63.5786 Y42.7545
G01 X63.5742 Y42.6720
G01 X63.5786 Y42.5895
G01 X63.5798 Y42.5563
G01 X63.5803 Y42.5232
G01 X63.5803 Y32.7878
G01 X63.5798 Y32.7547
G01 X63.5786 Y32.7215
G01 X63.5741 Y32.6387
G01 X63.5713 Y32.6056
G01 X63.5677 Y32.5727
G01 X63.5632 Y32.5399
G01 X63.5506 Y32.4578
G01 X63.5445 Y32.4253
G01 X63.5377 Y32.3928
G01 X63.5179 Y32.3122
G01 X63.5095 Y32.2802
G01 X63.5002 Y32.2484
G01 X63.4902 Y32.2168
G01 X63.4795 Y32.1855
G01 X63.4511 Y32.1074
G01 X63.4388 Y32.0767
G01 X63.4257 Y32.0462
G01 X63.4120 Y32.0161
G01 X63.3761 Y31.9412
G01 X63.3608 Y31.9118
G01 X63.3449 Y31.8828
G01 X63.3282 Y31.8542
G01 X63.2852 Y31.7832
G01 X63.2671 Y31.7554
G01 X63.2483 Y31.7281
G01 X63.1992 Y31.6612
G01 X63.1792 Y31.6348
G01 X63.1584 Y31.6089
G01 X63.1371 Y31.5836
G01 X63.1152 Y31.5588
G01 X63.0591 Y31.4975
G01 X63.0360 Y31.4738
G01 X62.8872 Y31.3250
G01 X62.8635 Y31.3019
G01 X62.8022 Y31.2458
G01 X62.7774 Y31.2239
G01 X62.7521 Y31.2026
G01 X62.7262 Y31.1818
G01 X62.6998 Y31.1618
G01 X62.6329 Y31.1127
G01 X62.6056 Y31.0939
G01 X62.5778 Y31.0758
G01 X62.5068 Y31.0328
G01 X62.4782 Y31.0161
G01 X62.4492 Y31.0002
G01 X62.4198 Y30.9849
G01 X62.3900 Y30.9704
G01 X62.3148 Y30.9353
G01 X62.2843 Y30.9222
G01 X62.2536 Y30.9099
G01 X62.2225 Y30.8984
G01 X62.1442 Y30.8708
G01 X62.1126 Y30.8608
G01 X62.0808 Y30.8515
G01 X62.0488 Y30.8431
G01 X61.9682 Y30.8233
G01 X61.9357 Y30.8165
G01 X61.9032 Y30.8104
G01 X61.8705 Y30.8051
G01 X61.7883 Y30.7933
G01 X61.7554 Y30.7897
G01 X61.7223 Y30.7869
G01 X61.6893 Y30.7848
G01 X61.6063 Y30.7812
G01 X61.5732 Y30.7807
G01 X57.6587 Y30.7807
G01 X57.5599 Y30.6717
G01 X57.5374 Y30.6475
G01 X57.5143 Y30.6237
G01 X57.4905 Y30.6006
G01 X57.4663 Y30.5781
G01 X57.3572 Y30.4792
G01 X57.3324 Y30.4573
G01 X57.3070 Y30.4359
G01 X57.2812 Y30.4152
G01 X57.2548 Y30.3952
G01 X57.1365 Y30.3075
G01 X57.1097 Y30.2881
G01 X57.0824 Y30.2693
G01 X57.0546 Y30.2512
G01 X57.0264 Y30.2339
G01 X56.9001 Y30.1582
G01 X56.8715 Y30.1415
G01 X56.8425 Y30.1255
G01 X56.8131 Y30.1103
G01 X56.7900 Y30.0990
G01 X56.8131 Y30.0877
G01 X56.8425 Y30.0725
G01 X56.8715 Y30.0565
G01 X56.9001 Y30.0398
G01 X57.0264 Y29.9641
G01 X57.0546 Y29.9468
G01 X57.0824 Y29.9287
G01 X57.1097 Y29.9099
G01 X57.1365 Y29.8905
G01 X57.2548 Y29.8028
G01 X57.2812 Y29.7828
G01 X57.3070 Y29.7621
G01 X57.3324 Y29.7407
G01 X57.3572 Y29.7188
G01 X57.4663 Y29.6199
G01 X57.4905 Y29.5974
G01 X57.5143 Y29.5743
G01 X57.5374 Y29.5505
G01 X57.5599 Y29.5263
G01 X57.6588 Y29.4172
G01 X57.6807 Y29.3924
G01 X57.7021 Y29.3670
G01 X57.7228 Y29.3412
G01 X57.7428 Y29.3148
G01 X57.8305 Y29.1965
G01 X57.8499 Y29.1697
G01 X57.8687 Y29.1424
G01 X57.8868 Y29.1146
G01 X57.9041 Y29.0864
G01 X57.9798 Y28.9601
G01 X57.9965 Y28.9315
G01 X58.0125 Y28.9025
G01 X58.0277 Y28.8731
G01 X58.0423 Y28.8433
G01 X58.1052 Y28.7102
G01 X58.1190 Y28.6801
G01 X58.1321 Y28.6496
G01 X58.1444 Y28.6189
G01 X58.1559 Y28.5878
G01 X58.2055 Y28.4492
G01 X58.2163 Y28.4179
G01 X58.2263 Y28.3863
G01 X58.2355 Y28.3545
G01 X58.2440 Y28.3225
G01 X58.2797 Y28.1797
G01 X58.2874 Y28.1474
G01 X58.2942 Y28.1150
G01 X58.3003 Y28.0824
G01 X58.3056 Y28.0497
G01 X58.3272 Y27.9041
G01 X58.3316 Y27.8713
G01 X58.3353 Y27.8383
G01 X58.3381 Y27.8053
G01 X58.3402 Y27.7723
G01 X58.3474 Y27.6252
G01 X58.3486 Y27.5921
G01 X58.3490 Y27.5590
G01 X58.3486 Y27.5259
G01 X58.3474 Y27.4928
G01 X58.3402 Y27.3457
G01 X58.3381 Y27.3127
G01 X58.3353 Y27.2797
G01 X58.3316 Y27.2467
G01 X58.3272 Y27.2139
G01 X58.3056 Y27.0683
G01 X58.3003 Y27.0356
G01 X58.2942 Y27.0030
G01 X58.2874 Y26.9706
G01 X58.2797 Y26.9383
G01 X58.2440 Y26.7955
G01 X58.2355 Y26.7635
G01 X58.2263 Y26.7317
G01 X58.2163 Y26.7001
G01 X58.2055 Y26.6688
G01 X58.1559 Y26.5302
G01 X58.1444 Y26.4991
G01 X58.1321 Y26.4684
G01 X58.1190 Y26.4379
G01 X58.1052 Y26.4078
G01 X58.0423 Y26.2747
G01 X58.0277 Y26.2449
G01 X58.0125 Y26.2155
G01 X57.9965 Y26.1865
G01 X57.9798 Y26.1579
G01 X57.9041 Y26.0316
G01 X57.8868 Y26.0034
G01 X57.8687 Y25.9756
G01 X57.8499 Y25.9483
G01 X57.8305 Y25.9215
G01 X57.7428 Y25.8032
G01 X57.7228 Y25.7768
G01 X57.7021 Y25.7510
G01 X57.6807 Y25.7256
G01 X57.6588 Y25.7008
G01 X57.5599 Y25.5917
G01 X57.5374 Y25.5675
G01 X57.5143 Y25.5437
G01 X57.4905 Y25.5206
G01 X57.4663 Y25.4981
G01 X57.3572 Y25.3992
G01 X57.3324 Y25.3773
G01 X57.3070 Y25.3559
G01 X57.2812 Y25.3352
G01 X57.2548 Y25.3152
G01 X57.1365 Y25.2275
G01 X57.1097 Y25.2081
G01 X57.0824 Y25.1893
G01 X57.0546 Y25.1712
G01 X57.0264 Y25.1539
G01 X56.9001 Y25.0782
G01 X56.8715 Y25.0615
G01 X56.8425 Y25.0455
G01 X56.8131 Y25.0303
G01 X56.7833 Y25.0157
G01 X56.6502 Y24.9528
G01 X56.6201 Y24.9390
G01 X56.5896 Y24.9259
G01 X56.5589 Y24.9136
G01 X56.5278 Y24.9021
G01 X56.3892 Y24.8525
G01 X56.3579 Y24.8417
G01 X56.3263 Y24.8317
G01 X56.2945 Y24.8225
G01 X56.2625 Y24.8140
G01 X56.1197 Y24.7783
G01 X56.0874 Y24.7706
G01 X56.0550 Y24.7638
G01 X56.0224 Y24.7577
G01 X55.9897 Y24.7524
G01 X55.8441 Y24.7308
G01 X55.8113 Y24.7264
G01 X55.7783 Y24.7227
G01 X55.7453 Y24.7199
G01 X55.7123 Y24.7178
G01 X55.5652 Y24.7106
G01 X55.5321 Y24.7094
G01 X55.4990 Y24.7090
G01 X55.4659 Y24.7094
G01 X55.4328 Y24.7106
G01 X55.2857 Y24.7178
G01 X55.2527 Y24.7199
G01 X55.2197 Y24.7227
G01 X55.1867 Y24.7264
G01 X55.1539 Y24.7308
G01 X55.0083 Y24.7524
G01 X54.9756 Y24.7577
G01 X54.9430 Y24.7638
G01 X54.9106 Y24.7706
G01 X54.8783 Y24.7783
G01 X54.7355 Y24.8140
G01 X54.7035 Y24.8225
G01 X54.6717 Y24.8317
G01 X54.6401 Y24.8417
G01 X54.6088 Y24.8525
G01 X54.4702 Y24.9021
G01 X54.4391 Y24.9136
G01 X54.4084 Y24.9259
G01 X54.3779 Y24.9390
G01 X54.3478 Y24.9528
G01 X54.2147 Y25.0157
G01 X54.1849 Y25.0303
G01 X54.1555 Y25.0455
G01 X54.1265 Y25.0615
G01 X54.0979 Y25.0782
G01 X53.9716 Y25.1539
G01 X53.9434 Y25.1712
G01 X53.9156 Y25.1893
G01 X53.8883 Y25.2081
G01 X53.8615 Y25.2275
G01 X53.7432 Y25.3152
G01 X53.7168 Y25.3352
G01 X53.6910 Y25.3559
G01 X53.6656 Y25.3773
G01 X53.6408 Y25.3992
G01 X53.5317 Y25.4981
G01 X53.5075 Y25.5206
G01 X53.4837 Y25.5437
G01 X53.4606 Y25.5675
G01 X53.4381 Y25.5917
G01 X53.3392 Y25.7008
G01 X53.3173 Y25.7256
G01 X53.2959 Y25.7510
G01 X53.2752 Y25.7768
G01 X53.2340 Y25.8317
G01 X46.8163 Y25.8317
G01 X46.8163 Y20.3642
G01 X46.8799 Y20.3870
G01 X46.9112 Y20.3978
G01 X46.9428 Y20.4078
G01 X46.9747 Y20.4170
G01 X47.0067 Y20.4255
G01 X47.1019 Y20.4493
G01 X47.1341 Y20.4570
G01 X47.1665 Y20.4638
G01 X47.1991 Y20.4699
G01 X47.2318 Y20.4752
G01 X47.3289 Y20.4896
G01 X47.3617 Y20.4940
G01 X47.3947 Y20.4977
G01 X47.4277 Y20.5005
G01 X47.4607 Y20.5026
G01 X47.5588 Y20.5074
G01 X47.5919 Y20.5086
G01 X47.6250 Y20.5090
G01 X47.6581 Y20.5086
G01 X47.6912 Y20.5074
G01 X47.7893 Y20.5026
G01 X47.8223 Y20.5005
G01 X47.8553 Y20.4977
G01 X47.8883 Y20.4940
G01 X47.9211 Y20.4896
G01 X48.0182 Y20.4752
G01 X48.0509 Y20.4699
G01 X48.0835 Y20.4638
G01 X48.1159 Y20.4570
G01 X48.1481 Y20.4493
G01 X48.2433 Y20.4255
G01 X48.2753 Y20.4170
G01 X48.3072 Y20.4078
G01 X48.3388 Y20.3978
G01 X48.3701 Y20.3870
G01 X48.4625 Y20.3540
G01 X48.4935 Y20.3424
G01 X48.5243 Y20.3301
G01 X48.5548 Y20.3171
G01 X48.5849 Y20.3033
G01 X48.6736 Y20.2613
G01 X48.7034 Y20.2468
G01 X48.7328 Y20.2315
G01 X48.7618 Y20.2155
G01 X48.7904 Y20.1989
G01 X48.8746 Y20.1484
G01 X48.9028 Y20.1310
G01 X48.9306 Y20.1130
G01 X48.9579 Y20.0942
G01 X48.9848 Y20.0748
G01 X49.0636 Y20.0163
G01 X49.0900 Y19.9963
G01 X49.1158 Y19.9756
G01 X49.1412 Y19.9542
G01 X49.1660 Y19.9323
G01 X49.2387 Y19.8664
G01 X49.2630 Y19.8438
G01 X49.2867 Y19.8207
G01 X49.3098 Y19.7970
G01 X49.3324 Y19.7727
G01 X49.3983 Y19.7000
G01 X49.4202 Y19.6752
G01 X49.4416 Y19.6498
G01 X49.4623 Y19.6240
G01 X49.4823 Y19.5976
G01 X49.5408 Y19.5188
G01 X49.5602 Y19.4919
G01 X49.5790 Y19.4646
G01 X49.5970 Y19.4368
G01 X49.6144 Y19.4086
G01 X49.6649 Y19.3244
G01 X49.6815 Y19.2958
G01 X49.6975 Y19.2668
G01 X49.7128 Y19.2374
G01 X49.7273 Y19.2076
G01 X49.7693 Y19.1189
G01 X49.7831 Y19.0888
G01 X49.7961 Y19.0583
G01 X49.8084 Y19.0275
G01 X49.8200 Y18.9965
G01 X49.8530 Y18.9041
G01 X49.8638 Y18.8728
G01 X49.8738 Y18.8412
G01 X49.8830 Y18.8093
G01 X49.8915 Y18.7773
G01 X49.9153 Y18.6821
G01 X49.9230 Y18.6499
G01 X49.9298 Y18.6175
G01 X49.9359 Y18.5849
G01 X49.9412 Y18.5522
G01 X49.9556 Y18.4551
G01 X49.9600 Y18.4223
G01 X49.9637 Y18.3893
G01 X49.9665 Y18.3563
G01 X49.9686 Y18.3233
G01 X49.9734 Y18.2252
G01 X49.9746 Y18.1921
G01 X49.9750 Y18.1590
G01 X49.9750 Y17.9090
G01 X49.9746 Y17.8759
G01 X49.9734 Y17.8428
G01 X49.9686 Y17.7447
G01 X49.9665 Y17.7117
G01 X49.9637 Y17.6787
G01 X49.9600 Y17.6457
G01 X49.9556 Y17.6129
G01 X49.9412 Y17.5158
G01 X49.9359 Y17.4831
G01 X49.9298 Y17.4505
G01 X49.9230 Y17.4181
G01 X49.9153 Y17.3859
G01 X49.8915 Y17.2907
G01 X49.8830 Y17.2587
G01 X49.8738 Y17.2268
G01 X49.8638 Y17.1952
G01 X49.8530 Y17.1639
G01 X49.8200 Y17.0715
G01 X49.8084 Y17.0405
G01 X49.7961 Y17.0097
G01 X49.7831 Y16.9792
G01 X49.7693 Y16.9491
G01 X49.7273 Y16.8604
G01 X49.7128 Y16.8306
G01 X49.6975 Y16.8012
G01 X49.6815 Y16.7722
G01 X49.6649 Y16.7436
G01 X49.6144 Y16.6594
G01 X49.5970 Y16.6312
G01 X49.5790 Y16.6034
G01 X49.5602 Y16.5761
G01 X49.5408 Y16.5492
G01 X49.4823 Y16.4704
G01 X49.4623 Y16.4440
G01 X49.4416 Y16.4182
G01 X49.4202 Y16.3928
G01 X49.3983 Y16.3680
G01 X49.3324 Y16.2953
G01 X49.3098 Y16.2710
G01 X49.2867 Y16.2473
G01 X49.2630 Y16.2242
G01 X49.2387 Y16.2016
G01 X49.1660 Y16.1357
G01 X49.1412 Y16.1138
G01 X49.1158 Y16.0924
G01 X49.0900 Y16.0717
G01 X49.0636 Y16.0517
G01 X48.9848 Y15.9932
G01 X48.9579 Y15.9738
G01 X48.9306 Y15.9550
G01 X48.9028 Y15.9370
G01 X48.8746 Y15.9196
G01 X48.7904 Y15.8691
G01 X48.7618 Y15.8525
G01 X48.7328 Y15.8365
G01 X48.7034 Y15.8212
G01 X48.6736 Y15.8067
G01 X48.5849 Y15.7647
G01 X48.5548 Y15.7509
G01 X48.5243 Y15.7379
G01 X48.4935 Y15.7256
G01 X48.4625 Y15.7140
G01 X48.3701 Y15.6810
G01 X48.3388 Y15.6702
G01 X48.3072 Y15.6602
G01 X48.2753 Y15.6510
G01 X48.2433 Y15.6425
G01 X48.1481 Y15.6187
G01 X48.1159 Y15.6110
G01 X48.0835 Y15.6042
G01 X48.0509 Y15.5981
G01 X48.0182 Y15.5928
G01 X47.9211 Y15.5784
G01 X47.8883 Y15.5740
G01 X47.8553 Y15.5703
G01 X47.8223 Y15.5675
G01 X47.7893 Y15.5654
G01 X47.6912 Y15.5606
G01 X47.6581 Y15.5594
G01 X47.6250 Y15.5590
G01 X47.5919 Y15.5594
G01 X47.5588 Y15.5606
G01 X47.4607 Y15.5654
G01 X47.4277 Y15.5675
G01 X47.3947 Y15.5703
G01 X47.3617 Y15.5740
G01 X47.3289 Y15.5784
G01 X47.2318 Y15.5928
G01 X47.1991 Y15.5981
G01 X47.1665 Y15.6042
G01 X47.1341 Y15.6110
G01 X47.1019 Y15.6187
G01 X47.0067 Y15.6425
G01 X46.9747 Y15.6510
G01 X46.9428 Y15.6602
G01 X46.9112 Y15.6702
G01 X46.8799 Y15.6810
G01 X46.7875 Y15.7140
G01 X46.7565 Y15.7256
G01 X46.7257 Y15.7379
G01 X46.6952 Y15.7509
G01 X46.6651 Y15.7647
G01 X46.5764 Y15.8067
G01 X46.5466 Y15.8212
G01 X46.5172 Y15.8365
G01 X46.4882 Y15.8525
G01 X46.4596 Y15.8691
G01 X46.3550 Y15.9322
G01 X46.2504 Y15.8691
G01 X46.2218 Y15.8525
G01 X46.1928 Y15.8365
G01 X46.1634 Y15.8212
G01 X46.1336 Y15.8067
G01 X46.0449 Y15.7647
G01 X46.0148 Y15.7509
G01 X45.9843 Y15.7379
G01 X45.9535 Y15.7256
G01 X45.9225 Y15.7140
G01 X45.8301 Y15.6810
G01 X45.7988 Y15.6702
G01 X45.7672 Y15.6602
G01 X45.7353 Y15.6510
G01 X45.7033 Y15.6425
G01 X45.6081 Y15.6187
G01 X45.5759 Y15.6110
G01 X45.5435 Y15.6042
G01 X45.5109 Y15.5981
G01 X45.4782 Y15.5928
G01 X45.3811 Y15.5784
G01 X45.3483 Y15.5740
G01 X45.3153 Y15.5703
G01 X45.2823 Y15.5675
G01 X45.2493 Y15.5654
G01 X45.1512 Y15.5606
G01 X45.1181 Y15.5594
G01 X45.0850 Y15.5590
G01 X45.0519 Y15.5594
G01 X45.0188 Y15.5606
G01 X44.9207 Y15.5654
G01 X44.8877 Y15.5675
G01 X44.8547 Y15.5703
G01 X44.8217 Y15.5740
G01 X44.7889 Y15.5784
G01 X44.6918 Y15.5928
G01 X44.6591 Y15.5981
G01 X44.6265 Y15.6042
G01 X44.5941 Y15.6110
G01 X44.5619 Y15.6187
G01 X44.4667 Y15.6425
G01 X44.4347 Y15.6510
G01 X44.4028 Y15.6602
G01 X44.3712 Y15.6702
G01 X44.3399 Y15.6810
G01 X44.2475 Y15.7140
G01 X44.2165 Y15.7256
G01 X44.1857 Y15.7379
G01 X44.1552 Y15.7509
G01 X44.1251 Y15.7647
G01 X44.0364 Y15.8067
G01 X44.0066 Y15.8212
G01 X43.9772 Y15.8365
G01 X43.9482 Y15.8525
G01 X43.9196 Y15.8691
G01 X43.8150 Y15.9322
G01 X43.7104 Y15.8691
G01 X43.6818 Y15.8525
G01 X43.6528 Y15.8365
G01 X43.6234 Y15.8212
G01 X43.5936 Y15.8067
G01 X43.5049 Y15.7647
G01 X43.4748 Y15.7509
G01 X43.4443 Y15.7379
G01 X43.4135 Y15.7256
G01 X43.3825 Y15.7140
G01 X43.2901 Y15.6810
G01 X43.2588 Y15.6702
G01 X43.2272 Y15.6602
G01 X43.1953 Y15.6510
G01 X43.1633 Y15.6425
G01 X43.0681 Y15.6187
G01 X43.0359 Y15.6110
G01 X43.0035 Y15.6042
G01 X42.9709 Y15.5981
G01 X42.9382 Y15.5928
G01 X42.8411 Y15.5784
G01 X42.8083 Y15.5740
G01 X42.7753 Y15.5703
G01 X42.7423 Y15.5675
G01 X42.7093 Y15.5654
G01 X42.6112 Y15.5606
G01 X42.5781 Y15.5594
G01 X42.5450 Y15.5590
G01 X42.5119 Y15.5594
G01 X42.4788 Y15.5606
G01 X42.3807 Y15.5654
G01 X42.3477 Y15.5675
G01 X42.3147 Y15.5703
G01 X42.2817 Y15.5740
G01 X42.2489 Y15.5784
G01 X42.1518 Y15.5928
G01 X42.1191 Y15.5981
G01 X42.0865 Y15.6042
G01 X42.0541 Y15.6110
G01 X42.0219 Y15.6187
G01 X41.9267 Y15.6425
G01 X41.8947 Y15.6510
G01 X41.8628 Y15.6602
G01 X41.8312 Y15.6702
G01 X41.7999 Y15.6810
G01 X41.7075 Y15.7140
G01 X41.6765 Y15.7256
G01 X41.6457 Y15.7379
G01 X41.6152 Y15.7509
G01 X41.5851 Y15.7647
G01 X41.4964 Y15.8067
G01 X41.4666 Y15.8212
G01 X41.4372 Y15.8365
G01 X41.4082 Y15.8525
G01 X41.3796 Y15.8691
G01 X41.2954 Y15.9196
G01 X41.2672 Y15.9370
G01 X41.2394 Y15.9550
G01 X41.2121 Y15.9738
G01 X41.1852 Y15.9932
G01 X41.1064 Y16.0517
G01 X41.0800 Y16.0717
G01 X41.0542 Y16.0924
G01 X41.0288 Y16.1138
G01 X41.0040 Y16.1357
G01 X40.9313 Y16.2016
G01 X40.9070 Y16.2242
G01 X40.8916 Y16.2392
G01 X36.0584 Y16.2392
G01 X36.0348 Y16.2194
G01 X36.0090 Y16.1987
G01 X35.9826 Y16.1787
G01 X35.9038 Y16.1202
G01 X35.8769 Y16.1008
G01 X35.8496 Y16.0820
G01 X35.8218 Y16.0640
G01 X35.7936 Y16.0466
G01 X35.7094 Y15.9961
G01 X35.6808 Y15.9795
G01 X35.6518 Y15.9635
G01 X35.6224 Y15.9482
G01 X35.5926 Y15.9337
G01 X35.5039 Y15.8917
G01 X35.4738 Y15.8779
G01 X35.4433 Y15.8649
G01 X35.4125 Y15.8526
G01 X35.3815 Y15.8410
G01 X35.2891 Y15.8080
G01 X35.2578 Y15.7972
G01 X35.2262 Y15.7872
G01 X35.1943 Y15.7780
G01 X35.1623 Y15.7695
G01 X35.0671 Y15.7457
G01 X35.0349 Y15.7380
G01 X35.0025 Y15.7312
G01 X34.9699 Y15.7251
G01 X34.9372 Y15.7198
G01 X34.8401 Y15.7054
G01 X34.8073 Y15.7010
G01 X34.7743 Y15.6973
G01 X34.7413 Y15.6945
G01 X34.7083 Y15.6924
G01 X34.6102 Y15.6876
G01 X34.5771 Y15.6864
G01 X34.5440 Y15.6860
G01 X34.5109 Y15.6864
G01 X34.4778 Y15.6876
G01 X34.3797 Y15.6924
G01 X34.3467 Y15.6945
G01 X34.3137 Y15.6973
G01 X34.2807 Y15.7010
G01 X34.2479 Y15.7054
G01 X34.1508 Y15.7198
G01 X34.1181 Y15.7251
G01 X34.0855 Y15.7312
G01 X34.0531 Y15.7380
G01 X34.0209 Y15.7457
G01 X33.9257 Y15.7695
G01 X33.8937 Y15.7780
G01 X33.8618 Y15.7872
G01 X33.8302 Y15.7972
G01 X33.7989 Y15.8080
G01 X33.7065 Y15.8410
G01 X33.6755 Y15.8526
G01 X33.6447 Y15.8649
G01 X33.6142 Y15.8779
G01 X33.5841 Y15.8917
G01 X33.4954 Y15.9337
G01 X33.4656 Y15.9482
G01 X33.4362 Y15.9635
G01 X33.4072 Y15.9795
G01 X33.3786 Y15.9961
G01 X33.2740 Y16.0592
G01 X33.1690 Y15.9959
G01 X33.1690 Y13.6795
G01 X33.1686 Y13.6464
G01 X33.1649 Y13.5634
G01 X33.1629 Y13.5304
G01 X33.1600 Y13.4974
G01 X33.1564 Y13.4644
G01 X33.1446 Y13.3823
G01 X33.1393 Y13.3495
G01 X33.1333 Y13.3170
G01 X33.1264 Y13.2846
G01 X33.1187 Y13.2523
G01 X33.0982 Y13.1719
G01 X33.0889 Y13.1401
G01 X33.0789 Y13.1085
G01 X33.0682 Y13.0772
G01 X33.0398 Y12.9991
G01 X33.0275 Y12.9684
G01 X33.0145 Y12.9379
G01 X32.9793 Y12.8627
G01 X32.9648 Y12.8329
G01 X32.9495 Y12.8035
G01 X32.9336 Y12.7745
G01 X32.9169 Y12.7459
G01 X32.8739 Y12.6749
G01 X32.8558 Y12.6471
G01 X32.8370 Y12.6198
G01 X32.7879 Y12.5529
G01 X32.7679 Y12.5265
G01 X32.7472 Y12.5006
G01 X32.7258 Y12.4753
G01 X32.7039 Y12.4505
G01 X32.6478 Y12.3892
G01 X32.6247 Y12.3655
G01 X32.4072 Y12.1480
G01 X32.3835 Y12.1249
G01 X32.3592 Y12.1023
G01 X32.2974 Y12.0469
G01 X32.2721 Y12.0256
G01 X32.2462 Y12.0048
G01 X32.1798 Y11.9551
G01 X32.1529 Y11.9357
G01 X32.1256 Y11.9169
G01 X32.0978 Y11.8988
G01 X32.0696 Y11.8815
G01 X31.9982 Y11.8391
G01 X31.9692 Y11.8232
G01 X31.9398 Y11.8079
G01 X31.8649 Y11.7720
G01 X31.8348 Y11.7583
G01 X31.8043 Y11.7452
G01 X31.7736 Y11.7329
G01 X31.7425 Y11.7214
G01 X31.6642 Y11.6938
G01 X31.6326 Y11.6838
G01 X31.6008 Y11.6745
G01 X31.5204 Y11.6540
G01 X31.4882 Y11.6463
G01 X31.4557 Y11.6395
G01 X31.4232 Y11.6334
G01 X31.3905 Y11.6281
G01 X31.3083 Y11.6163
G01 X31.2754 Y11.6127
G01 X31.2423 Y11.6099
G01 X31.1595 Y11.6054
G01 X31.1263 Y11.6042
G01 X31.0932 Y11.6037
G01 X26.3857 Y11.6037
G01 X20.7157 Y5.9337
G01 X20.7795 Y5.6797
G01 X20.7872 Y5.6475
G01 X20.7940 Y5.6151
G01 X20.8001 Y5.5825
G01 X20.8054 Y5.5498
G01 X20.8413 Y5.3071
G01 X20.8458 Y5.2743
G01 X20.8495 Y5.2414
G01 X20.8523 Y5.2084
G01 X20.8543 Y5.1753
G01 X20.8664 Y4.9302
G01 X20.8676 Y4.8971
G01 X20.8680 Y4.8640
G01 X20.8676 Y4.8309
G01 X20.8664 Y4.7978
G01 X20.8543 Y4.5527
G01 X20.8523 Y4.5196
G01 X20.8495 Y4.4866
G01 X20.8458 Y4.4537
G01 X20.8413 Y4.4209
G01 X20.8054 Y4.1782
G01 X20.8001 Y4.1455
G01 X20.7940 Y4.1129
G01 X20.7872 Y4.0805
G01 X20.7795 Y4.0483
G01 X20.7199 Y3.8103
G01 X20.7114 Y3.7782
G01 X20.7022 Y3.7464
G01 X20.6922 Y3.7148
G01 X20.6814 Y3.6835
G01 X20.5988 Y3.4525
G01 X20.5872 Y3.4214
G01 X20.5749 Y3.3907
G01 X20.5619 Y3.3602
G01 X20.5481 Y3.3301
G01 X20.4432 Y3.1083
G01 X20.4287 Y3.0785
G01 X20.4134 Y3.0491
G01 X20.3974 Y3.0201
G01 X20.3807 Y2.9915
G01 X20.2546 Y2.7810
G01 X20.2372 Y2.7528
G01 X20.2192 Y2.7251
G01 X20.2004 Y2.6977
G01 X20.1810 Y2.6709
G01 X20.0349 Y2.4738
G01 X20.0148 Y2.4475
G01 X19.9941 Y2.4216
G01 X19.9728 Y2.3962
G01 X19.9508 Y2.3714
G01 X19.7861 Y2.1896
G01 X19.7635 Y2.1654
G01 X19.7404 Y2.1416
G01 X19.7166 Y2.1185
G01 X19.6924 Y2.0959
G01 X19.5106 Y1.9312
G01 X19.4858 Y1.9092
G01 X19.4604 Y1.8879
G01 X19.4345 Y1.8672
G01 X19.4082 Y1.8471
G01 X19.2111 Y1.7010
G01 X19.1843 Y1.6816
G01 X19.1569 Y1.6628
G01 X19.1292 Y1.6448
G01 X19.1010 Y1.6274
G01 X18.8905 Y1.5013
G01 X18.8619 Y1.4846
G01 X18.8329 Y1.4686
G01 X18.8035 Y1.4533
G01 X18.7737 Y1.4388
G01 X18.5519 Y1.3339
G01 X18.5218 Y1.3201
G01 X18.4913 Y1.3071
G01 X18.4606 Y1.2948
G01 X18.4295 Y1.2832
G01 X18.1985 Y1.2006
G01 X18.1672 Y1.1898
G01 X18.1356 Y1.1798
G01 X18.1038 Y1.1706
G01 X18.0717 Y1.1621
G01 X17.8337 Y1.1025
G01 X17.8015 Y1.0948
G01 X17.7691 Y1.0880
G01 X17.7365 Y1.0819
G01 X17.7038 Y1.0766
G01 X17.4611 Y1.0407
G01 X17.4283 Y1.0362
G01 X17.3954 Y1.0325
G01 X17.3624 Y1.0297
G01 X17.3293 Y1.0277
G01 X17.0842 Y1.0156
G01 X17.0511 Y1.0144
G01 X17.0180 Y1.0140
G01 X16.9849 Y1.0144
G01 X16.9518 Y1.0156
G01 X16.7067 Y1.0277
G01 X16.6736 Y1.0297
G01 X16.6406 Y1.0325
G01 X16.6077 Y1.0362
G01 X16.5749 Y1.0407
G01 X16.3322 Y1.0766
G01 X16.2995 Y1.0819
G01 X16.2669 Y1.0880
G01 X16.2345 Y1.0948
G01 X16.2023 Y1.1025
G01 X15.9643 Y1.1621
G01 X15.9322 Y1.1706
G01 X15.9004 Y1.1798
G01 X15.8688 Y1.1898
G01 X15.8375 Y1.2006
G01 X15.6065 Y1.2832
G01 X15.5754 Y1.2948
G01 X15.5447 Y1.3071
G01 X15.5142 Y1.3201
G01 X15.4841 Y1.3339
G01 X15.2623 Y1.4388
G01 X15.2325 Y1.4533
G01 X15.2031 Y1.4686
G01 X15.1741 Y1.4846
G01 X15.1455 Y1.5013
G01 X14.9350 Y1.6274
G01 X14.9068 Y1.6448
G01 X14.8791 Y1.6628
G01 X14.8517 Y1.6816
G01 X14.8249 Y1.7010
G01 X14.6278 Y1.8471
G01 X14.6015 Y1.8672
G01 X14.5756 Y1.8879
G01 X14.5502 Y1.9092
G01 X14.5254 Y1.9312
G01 X14.3436 Y2.0959
G01 X14.3194 Y2.1185
G01 X14.2956 Y2.1416
G01 X14.2725 Y2.1654
G01 X14.2499 Y2.1896
G01 X14.0852 Y2.3714
G01 X14.0632 Y2.3962
G01 X14.0419 Y2.4216
G01 X14.0212 Y2.4475
G01 X14.0011 Y2.4738
G01 X13.8550 Y2.6709
G01 X13.8356 Y2.6977
G01 X13.8168 Y2.7251
G01 X13.7988 Y2.7528
G01 X13.7814 Y2.7810
G01 X13.6553 Y2.9915
G01 X13.6386 Y3.0201
G01 X13.6226 Y3.0491
G01 X13.6073 Y3.0785
G01 X13.5928 Y3.1083
G01 X13.4879 Y3.3301
G01 X13.4741 Y3.3602
G01 X13.4611 Y3.3907
G01 X13.4488 Y3.4214
G01 X13.4372 Y3.4525
G01 X13.3546 Y3.6835
G01 X13.3438 Y3.7148
G01 X13.3338 Y3.7464
G01 X13.3246 Y3.7782
G01 X13.3161 Y3.8103
G01 X13.2565 Y4.0483
G01 X13.2488 Y4.0805
G01 X13.2420 Y4.1129
G01 X13.2359 Y4.1455
G01 X13.2306 Y4.1782
G01 X13.1947 Y4.4209
G01 X13.1902 Y4.4537
G01 X13.1865 Y4.4866
G01 X13.1837 Y4.5196
G01 X13.1817 Y4.5527
G01 X13.1696 Y4.7978
G01 X13.1684 Y4.8309
G01 X13.1680 Y4.8640
G01 X13.1684 Y4.8971
G01 X13.1696 Y4.9302
G01 X13.1817 Y5.1753
G01 X13.1837 Y5.2084
G01 X13.1865 Y5.2414
G01 X13.1902 Y5.2743
G01 X13.1947 Y5.3071
G01 X13.2306 Y5.5498
G01 X13.2359 Y5.5825
G01 X13.2420 Y5.6151
G01 X13.2488 Y5.6475
G01 X13.2565 Y5.6797
G01 X13.3161 Y5.9177
G01 X13.3246 Y5.9498
G01 X13.3338 Y5.9816
G01 X13.3438 Y6.0132
G01 X13.3546 Y6.0445
G01 X13.4372 Y6.2755
G01 X13.4488 Y6.3066
G01 X13.4611 Y6.3373
G01 X13.4741 Y6.3678
G01 X13.4879 Y6.3979
G01 X13.5928 Y6.6197
G01 X13.6073 Y6.6495
G01 X13.6226 Y6.6789
G01 X13.6386 Y6.7079
G01 X13.6670 Y6.7561
G01 X13.6670 Y17.6620
G01 X3.5995 Y27.7295
G00 Z2.0000
G00 X3.8116 Y27.9416
G01 F80.00
G01 Z0.0000
G01 F200.00
G01 X3.7936 Y27.9601
G01 X3.7761 Y27.9789
G01 X3.6442 Y28.1244
G01 X3.6271 Y28.1437
G01 X3.6105 Y28.1635
G01 X3.5944 Y28.1836
G01 X3.5788 Y28.2041
G01 X3.4619 Y28.3618
G01 X3.4468 Y28.3827
G01 X3.4322 Y28.4040
G01 X3.4181 Y28.4256
G01 X3.4046 Y28.4475
G01 X3.3037 Y28.6159
G01 X3.2907 Y28.6382
G01 X3.2783 Y28.6608
G01 X3.2664 Y28.6836
G01 X3.2551 Y28.7068
G01 X3.1711 Y28.8843
G01 X3.1604 Y28.9077
G01 X3.1502 Y28.9314
G01 X3.1407 Y28.9554
G01 X3.1317 Y28.9795
G01 X3.0655 Y29.1644
G01 X3.0572 Y29.1888
G01 X3.0494 Y29.2133
G01 X3.0422 Y29.2381
G01 X3.0356 Y29.2630
G01 X2.9879 Y29.4535
G01 X2.9820 Y29.4786
G01 X2.9766 Y29.5038
G01 X2.9719 Y29.5291
G01 X2.9678 Y29.5546
G01 X2.9390 Y29.7488
G01 X2.9355 Y29.7743
G01 X2.9327 Y29.7999
G01 X2.9305 Y29.8256
G01 X2.9289 Y29.8513
G01 X2.9193 Y30.0475
G01 X2.9183 Y30.0732
G01 X2.9180 Y30.0990
G01 X2.9183 Y30.1248
G01 X2.9193 Y30.1505
G01 X2.9289 Y30.3467
G01 X2.9305 Y30.3724
G01 X2.9327 Y30.3981
G01 X2.9355 Y30.4237
G01 X2.9390 Y30.4492
G01 X2.9678 Y30.6434
G01 X2.9719 Y30.6689
G01 X2.9766 Y30.6942
G01 X2.9820 Y30.7194
G01 X2.9879 Y30.7445
G01 X3.0356 Y30.9350
G01 X3.0422 Y30.9599
G01 X3.0494 Y30.9847
G01 X3.0572 Y31.0092
G01 X3.0655 Y31.0336
G01 X3.1317 Y31.2185
G01 X3.1407 Y31.2426
G01 X3.1502 Y31.2666
G01 X3.1604 Y31.2903
G01 X3.1711 Y31.3137
G01 X3.2551 Y31.4912
G01 X3.2664 Y31.5144
G01 X3.2783 Y31.5372
G01 X3.2907 Y31.5598
G01 X3.3037 Y31.5821
G01 X3.4046 Y31.7505
G01 X3.4181 Y31.7724
G01 X3.4322 Y31.7940
G01 X3.4468 Y31.8153
G01 X3.4619 Y31.8362
G01 X3.5788 Y31.9939
G01 X3.5944 Y32.0144
G01 X3.6105 Y32.0345
G01 X3.6271 Y32.0543
G01 X3.6442 Y32.0736
G01 X3.7761 Y32.2191
G01 X3.7936 Y32.2379
G01 X3.8116 Y32.2564
G01 X3.8301 Y32.2744
G01 X3.8489 Y32.2919
G01 X3.9944 Y32.4238
G01 X4.0137 Y32.4409
G01 X4.0335 Y32.4575
G01 X4.0536 Y32.4736
G01 X4.0741 Y32.4892
G01 X4.2318 Y32.6061
G01 X4.2527 Y32.6212
G01 X4.2789 Y32.6390
G01 X4.2527 Y32.6568
G01 X4.2318 Y32.6719
G01 X4.0741 Y32.7888
G01 X4.0536 Y32.8044
G01 X4.0335 Y32.8205
G01 X4.0137 Y32.8371
G01 X3.9944 Y32.8542
G01 X3.8489 Y32.9861
G01 X3.8301 Y33.0036
G01 X3.8116 Y33.0216
G01 X3.7936 Y33.0401
G01 X3.7761 Y33.0589
G01 X3.6442 Y33.2044
G01 X3.6271 Y33.2237
G01 X3.6105 Y33.2435
G01 X3.5944 Y33.2636
G01 X3.5788 Y33.2841
G01 X3.4619 Y33.4418
G01 X3.4468 Y33.4627
G01 X3.4322 Y33.4840
G01 X3.4181 Y33.5056
G01 X3.4046 Y33.5275
G01 X3.3037 Y33.6959
G01 X3.2907 Y33.7182
G01 X3.2783 Y33.7408
G01 X3.2664 Y33.7636
G01 X3.2551 Y33.7868
G01 X3.1711 Y33.9643
G01 X3.1604 Y33.9877
G01 X3.1502 Y34.0114
G01 X3.1407 Y34.0354
G01 X3.1317 Y34.0595
G01 X3.0655 Y34.2444
G01 X3.0572 Y34.2688
G01 X3.0494 Y34.2933
G01 X3.0422 Y34.3181
G01 X3.0356 Y34.3430
G01 X2.9879 Y34.5335
G01 X2.9820 Y34.5586
G01 X2.9766 Y34.5838
G01 X2.9719 Y34.6091
G01 X2.9678 Y34.6346
G01 X2.9390 Y34.8288
G01 X2.9355 Y34.8543
G01 X2.9327 Y34.8799
G01 X2.9305 Y34.9056
G01 X2.9289 Y34.9313
G01 X2.9193 Y35.1275
G01 X2.9183 Y35.1532
G01 X2.9180 Y35.1790
G01 X2.9183 Y35.2048
G01 X2.9193 Y35.2305
G01 X2.9289 Y35.4267
G01 X2.9305 Y35.4524
G01 X2.9327 Y35.4781
G01 X2.9355 Y35.5037
G01 X2.9390 Y35.5292
G01 X2.9678 Y35.7234
G01 X2.9719 Y35.7489
G01 X2.9766 Y35.7742
G01 X2.9820 Y35.7994
G01 X2.9879 Y35.8245
G01 X3.0356 Y36.0150
G01 X3.0422 Y36.0399
G01 X3.0494 Y36.0647
G01 X3.0572 Y36.0892
G01 X3.0655 Y36.1136
G01 X3.1317 Y36.2985
G01 X3.1407 Y36.3226
G01 X3.1502 Y36.3466
G01 X3.1604 Y36.3703
G01 X3.1711 Y36.3937
G01 X3.2551 Y36.5712
G01 X3.2664 Y36.5944
G01 X3.2783 Y36.6172
G01 X3.2907 Y36.6398
G01 X3.3037 Y36.6621
G01 X3.4046 Y36.8305
G01 X3.4181 Y36.8524
G01 X3.4322 Y36.8740
G01 X3.4468 Y36.8953
G01 X3.4619 Y36.9162
G01 X3.5788 Y37.0739
G01 X3.5944 Y37.0944
G01 X3.6105 Y37.1145
G01 X3.6271 Y37.1343
G01 X3.6442 Y37.1536
G01 X3.7761 Y37.2991
G01 X3.7936 Y37.3179
G01 X3.8116 Y37.3364
G01 X13.9670 Y47.4918
G01 X13.9670 Y53.0549
G01 X13.9126 Y53.1457
G01 X13.8996 Y53.1680
G01 X13.8872 Y53.1905
G01 X13.8753 Y53.2134
G01 X13.8640 Y53.2366
G01 X13.7591 Y53.4584
G01 X13.7484 Y53.4818
G01 X13.7382 Y53.5055
G01 X13.7287 Y53.5294
G01 X13.7197 Y53.5536
G01 X13.6370 Y53.7846
G01 X13.6286 Y53.8089
G01 X13.6209 Y53.8335
G01 X13.6137 Y53.8582
G01 X13.6071 Y53.8832
G01 X13.5475 Y54.1211
G01 X13.5415 Y54.1462
G01 X13.5362 Y54.1714
G01 X13.5315 Y54.1968
G01 X13.5274 Y54.2222
G01 X13.4914 Y54.4649
G01 X13.4879 Y54.4904
G01 X13.4851 Y54.5160
G01 X13.4829 Y54.5417
G01 X13.4813 Y54.5674
G01 X13.4693 Y54.8125
G01 X13.4683 Y54.8382
G01 X13.4680 Y54.8640
G01 X13.4683 Y54.8898
G01 X13.4693 Y54.9155
G01 X13.4813 Y55.1606
G01 X13.4829 Y55.1863
G01 X13.4851 Y55.2120
G01 X13.4879 Y55.2376
G01 X13.4914 Y55.2631
G01 X13.5274 Y55.5058
G01 X13.5315 Y55.5312
G01 X13.5362 Y55.5566
G01 X13.5415 Y55.5818
G01 X13.5475 Y55.6069
G01 X13.6071 Y55.8448
G01 X13.6137 Y55.8698
G01 X13.6209 Y55.8945
G01 X13.6286 Y55.9191
G01 X13.6370 Y55.9434
G01 X13.7197 Y56.1744
G01 X13.7287 Y56.1986
G01 X13.7382 Y56.2225
G01 X13.7484 Y56.2462
G01 X13.7591 Y56.2696
G01 X13.8640 Y56.4914
G01 X13.8753 Y56.5146
G01 X13.8872 Y56.5375
G01 X13.8996 Y56.5600
G01 X13.9126 Y56.5823
G01 X14.0387 Y56.7927
G01 X14.0522 Y56.8147
G01 X14.0663 Y56.8363
G01 X14.0809 Y56.8575
G01 X14.0960 Y56.8784
G01 X14.2421 Y57.0755
G01 X14.2577 Y57.0960
G01 X14.2738 Y57.1161
G01 X14.2904 Y57.1358
G01 X14.3075 Y57.1551
G01 X14.4722 Y57.3369
G01 X14.4898 Y57.3558
G01 X14.5078 Y57.3742
G01 X14.5262 Y57.3922
G01 X14.5451 Y57.4098
G01 X14.7269 Y57.5745
G01 X14.7462 Y57.5916
G01 X14.7659 Y57.6082
G01 X14.7860 Y57.6243
G01 X14.8065 Y57.6399
G01 X15.0036 Y57.7860
G01 X15.0245 Y57.8011
G01 X15.0457 Y57.8157
G01 X15.0673 Y57.8298
G01 X15.0893 Y57.8433
G01 X15.2997 Y57.9694
G01 X15.3220 Y57.9824
G01 X15.3445 Y57.9948
G01 X15.3674 Y58.0067
G01 X15.3906 Y58.0180
G01 X15.6124 Y58.1229
G01 X15.6358 Y58.1336
G01 X15.6595 Y58.1438
G01 X15.6834 Y58.1533
G01 X15.7076 Y58.1623
G01 X15.9386 Y58.2450
G01 X15.9629 Y58.2534
G01 X15.9875 Y58.2611
G01 X16.0122 Y58.2683
G01 X16.0372 Y58.2749
G01 X16.2751 Y58.3345
G01 X16.3002 Y58.3405
G01 X16.3254 Y58.3458
G01 X16.3508 Y58.3505
G01 X16.3762 Y58.3546
G01 X16.6189 Y58.3906
G01 X16.6444 Y58.3941
G01 X16.6700 Y58.3969
G01 X16.6957 Y58.3991
G01 X16.7214 Y58.4007
G01 X16.9665 Y58.4127
G01 X16.9922 Y58.4137
G01 X17.0180 Y58.4140
G01 X17.0438 Y58.4137
G01 X17.0695 Y58.4127
G01 X17.3146 Y58.4007
G01 X17.3403 Y58.3991
G01 X17.3660 Y58.3969
G01 X17.3916 Y58.3941
G01 X17.4171 Y58.3906
G01 X17.6598 Y58.3546
G01 X17.6852 Y58.3505
G01 X17.7106 Y58.3458
G01 X17.7358 Y58.3405
G01 X17.7609 Y58.3345
G01 X17.9988 Y58.2749
G01 X18.0238 Y58.2683
G01 X18.0485 Y58.2611
G01 X18.0731 Y58.2534
G01 X18.0974 Y58.2450
G01 X18.3284 Y58.1623
G01 X18.3526 Y58.1533
G01 X18.3765 Y58.1438
G01 X18.4002 Y58.1336
G01 X18.4236 Y58.1229
G01 X18.6454 Y58.0180
G01 X18.6686 Y58.0067
G01 X18.6915 Y57.9948
G01 X18.7140 Y57.9824
G01 X18.7363 Y57.9694
G01 X18.9467 Y57.8433
G01 X18.9687 Y57.8298
G01 X18.9903 Y57.8157
G01 X19.0115 Y57.8011
G01 X19.0324 Y57.7860
G01 X19.2295 Y57.6399
G01 X19.2500 Y57.6243
G01 X19.2701 Y57.6082
G01 X19.2898 Y57.5916
G01 X19.3091 Y57.5745
G01 X19.4909 Y57.4098
G01 X19.5098 Y57.3922
G01 X19.5282 Y57.3742
G01 X19.5462 Y57.3558
G01 X19.5638 Y57.3369
G01 X19.7285 Y57.1551
G01 X19.7456 Y57.1358
G01 X19.7622 Y57.1161
G01 X19.7783 Y57.0960
G01 X19.7939 Y57.0755
G01 X19.9400 Y56.8784
G01 X19.9551 Y56.8575
G01 X19.9697 Y56.8363
G01 X19.9838 Y56.8147
G01 X19.9973 Y56.7927
G01 X20.1234 Y56.5823
G01 X20.1364 Y56.5600
G01 X20.1488 Y56.5375
G01 X20.1607 Y56.5146
G01 X20.2047 Y56.4223
G01 X31.7500 Y56.4223
G01 X31.7758 Y56.4219
G01 X31.8015 Y56.4210
G01 X31.8771 Y56.4170
G01 X31.9027 Y56.4148
G01 X31.9283 Y56.4119
G01 X32.0032 Y56.4011
G01 X32.0287 Y56.3970
G01 X32.0540 Y56.3923
G01 X32.0792 Y56.3870
G01 X32.1527 Y56.3689
G01 X32.1776 Y56.3623
G01 X32.2023 Y56.3552
G01 X32.2269 Y56.3474
G01 X32.2982 Y56.3222
G01 X32.3224 Y56.3132
G01 X32.3463 Y56.3036
G01 X32.3700 Y56.2935
G01 X32.4385 Y56.2614
G01 X32.4617 Y56.2501
G01 X32.4846 Y56.2383
G01 X32.5071 Y56.2258
G01 X32.5294 Y56.2129
G01 X32.5941 Y56.1737
G01 X32.6157 Y56.1596
G01 X32.6370 Y56.1451
G01 X32.6979 Y56.1003
G01 X32.7184 Y56.0846
G01 X32.7385 Y56.0685
G01 X32.7583 Y56.0520
G01 X32.7776 Y56.0349
G01 X32.8334 Y55.9838
G01 X32.8519 Y55.9659
G01 X37.3037 Y51.5140
G01 X37.3037 Y55.3720
G01 X37.3041 Y55.3978
G01 X37.3075 Y55.4733
G01 X37.3090 Y55.4991
G01 X37.3112 Y55.5247
G01 X37.3141 Y55.5503
G01 X37.3249 Y55.6252
G01 X37.3290 Y55.6507
G01 X37.3337 Y55.6760
G01 X37.3390 Y55.7012
G01 X37.3450 Y55.7263
G01 X37.3637 Y55.7996
G01 X37.3708 Y55.8243
G01 X37.3786 Y55.8489
G01 X37.3870 Y55.8733
G01 X37.4128 Y55.9444
G01 X37.4224 Y55.9683
G01 X37.4325 Y55.9920
G01 X37.4646 Y56.0605
G01 X37.4759 Y56.0837
G01 X37.4877 Y56.1066
G01 X37.5002 Y56.1291
G01 X37.5131 Y56.1514
G01 X37.5523 Y56.2161
G01 X37.5664 Y56.2377
G01 X37.5809 Y56.2590
G01 X37.6257 Y56.3199
G01 X37.6414 Y56.3404
G01 X37.6575 Y56.3605
G01 X37.6740 Y56.3803
G01 X37.6911 Y56.3996
G01 X37.7422 Y56.4554
G01 X37.7601 Y56.4739
G01 X40.3001 Y59.0139
G01 X40.3186 Y59.0318
G01 X40.3744 Y59.0829
G01 X40.3937 Y59.1000
G01 X40.4135 Y59.1165
G01 X40.4336 Y59.1326
G01 X40.4941 Y59.1780
G01 X40.5150 Y59.1931
G01 X40.5363 Y59.2076
G01 X40.5579 Y59.2217
G01 X40.6226 Y59.2609
G01 X40.6449 Y59.2738
G01 X40.6674 Y59.2863
G01 X40.6903 Y59.2981
G01 X40.7135 Y59.3094
G01 X40.7820 Y59.3415
G01 X40.8057 Y59.3516
G01 X40.8296 Y59.3612
G01 X40.8538 Y59.3702
G01 X40.9251 Y59.3954
G01 X40.9497 Y59.4032
G01 X40.9744 Y59.4103
G01 X40.9993 Y59.4169
G01 X41.0728 Y59.4350
G01 X41.0980 Y59.4403
G01 X41.1233 Y59.4450
G01 X41.1488 Y59.4491
G01 X41.2237 Y59.4599
G01 X41.2493 Y59.4628
G01 X41.2749 Y59.4650
G01 X41.3505 Y59.4690
G01 X41.3762 Y59.4699
G01 X41.4020 Y59.4703
G01 X60.4520 Y59.4703
G01 X60.4778 Y59.4699
G01 X60.5035 Y59.4690
G01 X60.5791 Y59.4650
G01 X60.6047 Y59.4628
G01 X60.6303 Y59.4599
G01 X60.6559 Y59.4564
G01 X60.7307 Y59.4450
G01 X60.7560 Y59.4403
G01 X60.7812 Y59.4350
G01 X60.8547 Y59.4169
G01 X60.8796 Y59.4103
G01 X60.9043 Y59.4032
G01 X60.9289 Y59.3954
G01 X61.0002 Y59.3702
G01 X61.0244 Y59.3612
G01 X61.0483 Y59.3516
G01 X61.0720 Y59.3415
G01 X61.0954 Y59.3308
G01 X61.1637 Y59.2981
G01 X61.1866 Y59.2863
G01 X61.2091 Y59.2738
G01 X61.2742 Y59.2352
G01 X61.2961 Y59.2217
G01 X61.3177 Y59.2076
G01 X61.3390 Y59.1931
G01 X61.3599 Y59.1780
G01 X61.4204 Y59.1326
G01 X61.4405 Y59.1165
G01 X61.4603 Y59.1000
G01 X61.5165 Y59.0494
G01 X61.5354 Y59.0318
G01 X61.5539 Y59.0139
G01 X62.8239 Y57.7439
G01 X62.8418 Y57.7254
G01 X62.8929 Y57.6696
G01 X62.9100 Y57.6503
G01 X62.9265 Y57.6305
G01 X62.9426 Y57.6104
G01 X62.9583 Y57.5899
G01 X63.0031 Y57.5290
G01 X63.0176 Y57.5077
G01 X63.0317 Y57.4861
G01 X63.0709 Y57.4214
G01 X63.0838 Y57.3991
G01 X63.0963 Y57.3766
G01 X63.1081 Y57.3537
G01 X63.1194 Y57.3305
G01 X63.1515 Y57.2620
G01 X63.1616 Y57.2383
G01 X63.1712 Y57.2144
G01 X63.1802 Y57.1902
G01 X63.2054 Y57.1189
G01 X63.2132 Y57.0943
G01 X63.2203 Y57.0696
G01 X63.2390 Y56.9963
G01 X63.2450 Y56.9712
G01 X63.2503 Y56.9460
G01 X63.2550 Y56.9207
G01 X63.2664 Y56.8459
G01 X63.2699 Y56.8203
G01 X63.2728 Y56.7947
G01 X63.2750 Y56.7691
G01 X63.2765 Y56.7433
G01 X63.2799 Y56.6678
G01 X63.2803 Y56.6420
G01 X63.2803 Y42.8208
G01 X63.2799 Y42.7950
G01 X63.2790 Y42.7693
G01 X63.2765 Y42.7195
G01 X63.2750 Y42.6937
G01 X63.2731 Y42.6720
G01 X63.2750 Y42.6503
G01 X63.2765 Y42.6245
G01 X63.2790 Y42.5747
G01 X63.2799 Y42.5490
G01 X63.2803 Y42.5232
G01 X63.2803 Y32.7878
G01 X63.2799 Y32.7620
G01 X63.2790 Y32.7363
G01 X63.2750 Y32.6607
G01 X63.2728 Y32.6351
G01 X63.2699 Y32.6094
G01 X63.2664 Y32.5839
G01 X63.2550 Y32.5091
G01 X63.2503 Y32.4838
G01 X63.2450 Y32.4586
G01 X63.2269 Y32.3851
G01 X63.2203 Y32.3602
G01 X63.2132 Y32.3355
G01 X63.2054 Y32.3109
G01 X63.1970 Y32.2865
G01 X63.1712 Y32.2154
G01 X63.1616 Y32.1915
G01 X63.1515 Y32.1678
G01 X63.1408 Y32.1444
G01 X63.1081 Y32.0761
G01 X63.0963 Y32.0532
G01 X63.0838 Y32.0307
G01 X63.0709 Y32.0084
G01 X63.0317 Y31.9437
G01 X63.0176 Y31.9221
G01 X63.0031 Y31.9008
G01 X62.9583 Y31.8399
G01 X62.9426 Y31.8194
G01 X62.9265 Y31.7992
G01 X62.9100 Y31.7795
G01 X62.8594 Y31.7233
G01 X62.8418 Y31.7044
G01 X62.8239 Y31.6859
G01 X62.6751 Y31.5371
G01 X62.6566 Y31.5192
G01 X62.6008 Y31.4681
G01 X62.5815 Y31.4510
G01 X62.5618 Y31.4345
G01 X62.5416 Y31.4184
G01 X62.5211 Y31.4027
G01 X62.4602 Y31.3579
G01 X62.4389 Y31.3434
G01 X62.4173 Y31.3293
G01 X62.3526 Y31.2901
G01 X62.3303 Y31.2772
G01 X62.3078 Y31.2647
G01 X62.2849 Y31.2529
G01 X62.2617 Y31.2416
G01 X62.1932 Y31.2095
G01 X62.1695 Y31.1994
G01 X62.1456 Y31.1898
G01 X62.1214 Y31.1808
G01 X62.0501 Y31.1556
G01 X62.0255 Y31.1478
G01 X62.0008 Y31.1407
G01 X61.9759 Y31.1341
G01 X61.9024 Y31.1160
G01 X61.8772 Y31.1107
G01 X61.8519 Y31.1060
G01 X61.8264 Y31.1019
G01 X61.7516 Y31.0911
G01 X61.7259 Y31.0882
G01 X61.7003 Y31.0860
G01 X61.6745 Y31.0845
G01 X61.5990 Y31.0811
G01 X61.5732 Y31.0807
G01 X57.5158 Y31.0807
G01 X57.4863 Y31.0414
G01 X57.4702 Y31.0213
G01 X57.4536 Y31.0016
G01 X57.4365 Y30.9823
G01 X57.3377 Y30.8732
G01 X57.3201 Y30.8543
G01 X57.3021 Y30.8359
G01 X57.2837 Y30.8179
G01 X57.2648 Y30.8003
G01 X57.1557 Y30.7015
G01 X57.1364 Y30.6844
G01 X57.1167 Y30.6678
G01 X57.0966 Y30.6517
G01 X57.0761 Y30.6361
G01 X56.9578 Y30.5484
G01 X56.9370 Y30.5333
G01 X56.9157 Y30.5188
G01 X56.8941 Y30.5047
G01 X56.8722 Y30.4912
G01 X56.7459 Y30.4155
G01 X56.7236 Y30.4025
G01 X56.7011 Y30.3901
G01 X56.6782 Y30.3782
G01 X56.6550 Y30.3669
G01 X56.5220 Y30.3040
G01 X56.4985 Y30.2933
G01 X56.4748 Y30.2831
G01 X56.4509 Y30.2735
G01 X56.4268 Y30.2646
G01 X56.2882 Y30.2150
G01 X56.2638 Y30.2066
G01 X56.2392 Y30.1988
G01 X56.2145 Y30.1916
G01 X56.1896 Y30.1851
G01 X56.0468 Y30.1493
G01 X56.0217 Y30.1433
G01 X55.9965 Y30.1380
G01 X55.9711 Y30.1333
G01 X55.9457 Y30.1292
G01 X55.8001 Y30.1076
G01 X55.7746 Y30.1041
G01 X55.7489 Y30.1013
G01 X55.7222 Y30.0990
G01 X55.7489 Y30.0967
G01 X55.7746 Y30.0939
G01 X55.8001 Y30.0904
G01 X55.9457 Y30.0688
G01 X55.9711 Y30.0647
G01 X55.9965 Y30.0600
G01 X56.0217 Y30.0547
G01 X56.0468 Y30.0487
G01 X56.1896 Y30.0129
G01 X56.2145 Y30.0064
G01 X56.2392 Y29.9992
G01 X56.2638 Y29.9914
G01 X56.2882 Y29.9830
G01 X56.4268 Y29.9334
G01 X56.4509 Y29.9245
G01 X56.4748 Y29.9149
G01 X56.4985 Y29.9047
G01 X56.5220 Y29.8940
G01 X56.6550 Y29.8311
G01 X56.6782 Y29.8198
G01 X56.7011 Y29.8079
G01 X56.7236 Y29.7955
G01 X56.7459 Y29.7825
G01 X56.8722 Y29.7068
G01 X56.8941 Y29.6933
G01 X56.9157 Y29.6792
G01 X56.9370 Y29.6647
G01 X56.9578 Y29.6496
G01 X57.0761 Y29.5619
G01 X57.0966 Y29.5463
G01 X57.1167 Y29.5302
G01 X57.1364 Y29.5136
G01 X57.1557 Y29.4965
G01 X57.2648 Y29.3977
G01 X57.2837 Y29.3801
G01 X57.3021 Y29.3621
G01 X57.3201 Y29.3437
G01 X57.3377 Y29.3248
G01 X57.4365 Y29.2157
G01 X57.4536 Y29.1964
G01 X57.4702 Y29.1767
G01 X57.4863 Y29.1566
G01 X57.5019 Y29.1361
G01 X57.5896 Y29.0178
G01 X57.6047 Y28.9970
G01 X57.6192 Y28.9757
G01 X57.6333 Y28.9541
G01 X57.6468 Y28.9322
G01 X57.7225 Y28.8059
G01 X57.7355 Y28.7836
G01 X57.7479 Y28.7611
G01 X57.7598 Y28.7382
G01 X57.7711 Y28.7150
G01 X57.8340 Y28.5820
G01 X57.8447 Y28.5585
G01 X57.8549 Y28.5348
G01 X57.8645 Y28.5109
G01 X57.8734 Y28.4868
G01 X57.9230 Y28.3482
G01 X57.9314 Y28.3238
G01 X57.9392 Y28.2992
G01 X57.9464 Y28.2745
G01 X57.9529 Y28.2496
G01 X57.9887 Y28.1068
G01 X57.9947 Y28.0817
G01 X58.0000 Y28.0565
G01 X58.0047 Y28.0311
G01 X58.0088 Y28.0057
G01 X58.0304 Y27.8601
G01 X58.0339 Y27.8346
G01 X58.0367 Y27.8089
G01 X58.0389 Y27.7833
G01 X58.0405 Y27.7575
G01 X58.0477 Y27.6105
G01 X58.0487 Y27.5848
G01 X58.0490 Y27.5590
G01 X58.0487 Y27.5332
G01 X58.0477 Y27.5075
G01 X58.0405 Y27.3605
G01 X58.0389 Y27.3347
G01 X58.0367 Y27.3091
G01 X58.0339 Y27.2834
G01 X58.0304 Y27.2579
G01 X58.0088 Y27.1123
G01 X58.0047 Y27.0869
G01 X58.0000 Y27.0615
G01 X57.9947 Y27.0363
G01 X57.9887 Y27.0112
G01 X57.9529 Y26.8684
G01 X57.9464 Y26.8435
G01 X57.9392 Y26.8188
G01 X57.9314 Y26.7942
G01 X57.9230 Y26.7698
G01 X57.8734 Y26.6312
G01 X57.8645 Y26.6071
G01 X57.8549 Y26.5832
G01 X57.8447 Y26.5595
G01 X57.8340 Y26.5360
G01 X57.7711 Y26.4030
G01 X57.7598 Y26.3798
G01 X57.7479 Y26.3569
G01 X57.7355 Y26.3344
G01 X57.7225 Y26.3121
G01 X57.6468 Y26.1858
G01 X57.6333 Y26.1639
G01 X57.6192 Y26.1423
G01 X57.6047 Y26.1210
G01 X57.5896 Y26.1002
G01 X57.5019 Y25.9819
G01 X57.4863 Y25.9614
G01 X57.4702 Y25.9413
G01 X57.4536 Y25.9216
G01 X57.4365 Y25.9023
G01 X57.3377 Y25.7932
G01 X57.3201 Y25.7743
G01 X57.3021 Y25.7559
G01 X57.2837 Y25.7379
G01 X57.2648 Y25.7203
G01 X57.1557 Y25.6215
G01 X57.1364 Y25.6044
G01 X57.1167 Y25.5878
G01 X57.0966 Y25.5717
G01 X57.0761 Y25.5561
G01 X56.9578 Y25.4684
G01 X56.9370 Y25.4533
G01 X56.9157 Y25.4388
G01 X56.8941 Y25.4247
G01 X56.8722 Y25.4112
G01 X56.7459 Y25.3355
G01 X56.7236 Y25.3225
G01 X56.7011 Y25.3101
G01 X56.6782 Y25.2982
G01 X56.6550 Y25.2869
G01 X56.5220 Y25.2240
G01 X56.4985 Y25.2133
G01 X56.4748 Y25.2031
G01 X56.4509 Y25.1935
G01 X56.4268 Y25.1846
G01 X56.2882 Y25.1350
G01 X56.2638 Y25.1266
G01 X56.2392 Y25.1188
G01 X56.2145 Y25.1116
G01 X56.1896 Y25.1051
G01 X56.0468 Y25.0693
G01 X56.0217 Y25.0633
G01 X55.9965 Y25.0580
G01 X55.9711 Y25.0533
G01 X55.9457 Y25.0492
G01 X55.8001 Y25.0276
G01 X55.7746 Y25.0241
G01 X55.7489 Y25.0213
G01 X55.7233 Y25.0191
G01 X55.6975 Y25.0175
G01 X55.5505 Y25.0103
G01 X55.5248 Y25.0093
G01 X55.4990 Y25.0090
G01 X55.4732 Y25.0093
G01 X55.4475 Y25.0103
G01 X55.3005 Y25.0175
G01 X55.2747 Y25.0191
G01 X55.2491 Y25.0213
G01 X55.2234 Y25.0241
G01 X55.1979 Y25.0276
G01 X55.0523 Y25.0492
G01 X55.0269 Y25.0533
G01 X55.0015 Y25.0580
G01 X54.9763 Y25.0633
G01 X54.9512 Y25.0693
G01 X54.8084 Y25.1051
G01 X54.7835 Y25.1116
G01 X54.7588 Y25.1188
G01 X54.7342 Y25.1266
G01 X54.7098 Y25.1350
G01 X54.5712 Y25.1846
G01 X54.5471 Y25.1935
G01 X54.5232 Y25.2031
G01 X54.4995 Y25.2133
G01 X54.4760 Y25.2240
G01 X54.3430 Y25.2869
G01 X54.3198 Y25.2982
G01 X54.2969 Y25.3101
G01 X54.2744 Y25.3225
G01 X54.2521 Y25.3355
G01 X54.1258 Y25.4112
G01 X54.1039 Y25.4247
G01 X54.0823 Y25.4388
G01 X54.0610 Y25.4533
G01 X54.0402 Y25.4684
G01 X53.9219 Y25.5561
G01 X53.9014 Y25.5717
G01 X53.8813 Y25.5878
G01 X53.8616 Y25.6044
G01 X53.8423 Y25.6215
G01 X53.7332 Y25.7203
G01 X53.7143 Y25.7379
G01 X53.6959 Y25.7559
G01 X53.6779 Y25.7743
G01 X53.6603 Y25.7932
G01 X53.5615 Y25.9023
G01 X53.5444 Y25.9216
G01 X53.5278 Y25.9413
G01 X53.5117 Y25.9614
G01 X53.4961 Y25.9819
G01 X53.4084 Y26.1002
G01 X53.3860 Y26.1317
G01 X46.5163 Y26.1317
G01 X46.5163 Y19.8828
G01 X46.6138 Y19.9415
G01 X46.6361 Y19.9545
G01 X46.6586 Y19.9669
G01 X46.6815 Y19.9788
G01 X46.7047 Y19.9901
G01 X46.7934 Y20.0321
G01 X46.8168 Y20.0428
G01 X46.8405 Y20.0530
G01 X46.8644 Y20.0625
G01 X46.8886 Y20.0715
G01 X46.9810 Y20.1046
G01 X47.0053 Y20.1129
G01 X47.0299 Y20.1207
G01 X47.0547 Y20.1279
G01 X47.0796 Y20.1345
G01 X47.1748 Y20.1583
G01 X47.1999 Y20.1643
G01 X47.2251 Y20.1696
G01 X47.2504 Y20.1743
G01 X47.2758 Y20.1784
G01 X47.3729 Y20.1928
G01 X47.3985 Y20.1963
G01 X47.4241 Y20.1991
G01 X47.4497 Y20.2013
G01 X47.4755 Y20.2029
G01 X47.5735 Y20.2077
G01 X47.5992 Y20.2087
G01 X47.6250 Y20.2090
G01 X47.6508 Y20.2087
G01 X47.6765 Y20.2077
G01 X47.7745 Y20.2029
G01 X47.8003 Y20.2013
G01 X47.8259 Y20.1991
G01 X47.8515 Y20.1963
G01 X47.8771 Y20.1928
G01 X47.9742 Y20.1784
G01 X47.9996 Y20.1743
G01 X48.0249 Y20.1696
G01 X48.0501 Y20.1643
G01 X48.0752 Y20.1583
G01 X48.1704 Y20.1345
G01 X48.1953 Y20.1279
G01 X48.2201 Y20.1207
G01 X48.2447 Y20.1129
G01 X48.2690 Y20.1046
G01 X48.3614 Y20.0715
G01 X48.3856 Y20.0625
G01 X48.4095 Y20.0530
G01 X48.4332 Y20.0428
G01 X48.4566 Y20.0321
G01 X48.5453 Y19.9901
G01 X48.5685 Y19.9788
G01 X48.5914 Y19.9669
G01 X48.6139 Y19.9545
G01 X48.6362 Y19.9415
G01 X48.7204 Y19.8911
G01 X48.7423 Y19.8776
G01 X48.7639 Y19.8635
G01 X48.7852 Y19.8489
G01 X48.8061 Y19.8338
G01 X48.8849 Y19.7754
G01 X48.9054 Y19.7598
G01 X48.9255 Y19.7437
G01 X48.9452 Y19.7271
G01 X48.9645 Y19.7100
G01 X49.0372 Y19.6441
G01 X49.0561 Y19.6266
G01 X49.0746 Y19.6086
G01 X49.0926 Y19.5901
G01 X49.1101 Y19.5712
G01 X49.1760 Y19.4985
G01 X49.1931 Y19.4792
G01 X49.2097 Y19.4595
G01 X49.2258 Y19.4394
G01 X49.2414 Y19.4189
G01 X49.2998 Y19.3401
G01 X49.3149 Y19.3192
G01 X49.3295 Y19.2979
G01 X49.3436 Y19.2763
G01 X49.3571 Y19.2544
G01 X49.4075 Y19.1702
G01 X49.4205 Y19.1479
G01 X49.4329 Y19.1254
G01 X49.4448 Y19.1025
G01 X49.4561 Y19.0793
G01 X49.4981 Y18.9906
G01 X49.5088 Y18.9672
G01 X49.5190 Y18.9435
G01 X49.5285 Y18.9196
G01 X49.5375 Y18.8954
G01 X49.5706 Y18.8030
G01 X49.5789 Y18.7787
G01 X49.5867 Y18.7541
G01 X49.5939 Y18.7293
G01 X49.6005 Y18.7044
G01 X49.6243 Y18.6092
G01 X49.6303 Y18.5841
G01 X49.6356 Y18.5589
G01 X49.6403 Y18.5336
G01 X49.6444 Y18.5082
G01 X49.6588 Y18.4111
G01 X49.6623 Y18.3855
G01 X49.6651 Y18.3599
G01 X49.6673 Y18.3343
G01 X49.6689 Y18.3085
G01 X49.6737 Y18.2105
G01 X49.6747 Y18.1848
G01 X49.6750 Y18.1590
G01 X49.6750 Y17.9090
G01 X49.6747 Y17.8832
G01 X49.6737 Y17.8575
G01 X49.6689 Y17.7595
G01 X49.6673 Y17.7337
G01 X49.6651 Y17.7081
G01 X49.6623 Y17.6825
G01 X49.6588 Y17.6569
G01 X49.6444 Y17.5598
G01 X49.6403 Y17.5344
G01 X49.6356 Y17.5091
G01 X49.6303 Y17.4839
G01 X49.6243 Y17.4588
G01 X49.6005 Y17.3636
G01 X49.5939 Y17.3387
G01 X49.5867 Y17.3139
G01 X49.5789 Y17.2893
G01 X49.5706 Y17.2650
G01 X49.5375 Y17.1726
G01 X49.5285 Y17.1484
G01 X49.5190 Y17.1245
G01 X49.5088 Y17.1008
G01 X49.4981 Y17.0774
G01 X49.4561 Y16.9887
G01 X49.4448 Y16.9655
G01 X49.4329 Y16.9426
G01 X49.4205 Y16.9201
G01 X49.4075 Y16.8978
G01 X49.3571 Y16.8136
G01 X49.3436 Y16.7917
G01 X49.3295 Y16.7701
G01 X49.3149 Y16.7488
G01 X49.2998 Y16.7279
G01 X49.2414 Y16.6491
G01 X49.2258 Y16.6286
G01 X49.2097 Y16.6085
G01 X49.1931 Y16.5888
G01 X49.1760 Y16.5695
G01 X49.1101 Y16.4968
G01 X49.0926 Y16.4779
G01 X49.0746 Y16.4594
G01 X49.0561 Y16.4414
G01 X49.0372 Y16.4239
G01 X48.9645 Y16.3580
G01 X48.9452 Y16.3409
G01 X48.9255 Y16.3243
G01 X48.9054 Y16.3082
G01 X48.8849 Y16.2926
G01 X48.8061 Y16.2342
G01 X48.7852 Y16.2191
G01 X48.7639 Y16.2045
G01 X48.7423 Y16.1904
G01 X48.7204 Y16.1769
G01 X48.6362 Y16.1265
G01 X48.6139 Y16.1135
G01 X48.5914 Y16.1011
G01 X48.5685 Y16.0892
G01 X48.5453 Y16.0779
G01 X48.4566 Y16.0359
G01 X48.4332 Y16.0252
G01 X48.4095 Y16.0150
G01 X48.3856 Y16.0055
G01 X48.3614 Y15.9965
G01 X48.2690 Y15.9634
G01 X48.2447 Y15.9551
G01 X48.2201 Y15.9473
G01 X48.1953 Y15.9401
G01 X48.1704 Y15.9335
G01 X48.0752 Y15.9097
G01 X48.0501 Y15.9037
G01 X48.0249 Y15.8984
G01 X47.9996 Y15.8937
G01 X47.9742 Y15.8896
G01 X47.8771 Y15.8752
G01 X47.8515 Y15.8717
G01 X47.8259 Y15.8689
G01 X47.8003 Y15.8667
G01 X47.7745 Y15.8651
G01 X47.6765 Y15.8603
G01 X47.6508 Y15.8593
G01 X47.6250 Y15.8590
G01 X47.5992 Y15.8593
G01 X47.5735 Y15.8603
G01 X47.4755 Y15.8651
G01 X47.4497 Y15.8667
G01 X47.4241 Y15.8689
G01 X47.3985 Y15.8717
G01 X47.3729 Y15.8752
G01 X47.2758 Y15.8896
G01 X47.2504 Y15.8937
G01 X47.2251 Y15.8984
G01 X47.1999 Y15.9037
G01 X47.1748 Y15.9097
G01 X47.0796 Y15.9335
G01 X47.0547 Y15.9401
G01 X47.0299 Y15.9473
G01 X47.0053 Y15.9551
G01 X46.9810 Y15.9634
G01 X46.8886 Y15.9965
G01 X46.8644 Y16.0055
G01 X46.8405 Y16.0150
G01 X46.8168 Y16.0252
G01 X46.7934 Y16.0359
G01 X46.7047 Y16.0779
G01 X46.6815 Y16.0892
G01 X46.6586 Y16.1011
G01 X46.6361 Y16.1135
G01 X46.6138 Y16.1265
G01 X46.5296 Y16.1769
G01 X46.5077 Y16.1904
G01 X46.4861 Y16.2045
G01 X46.4648 Y16.2191
G01 X46.4439 Y16.2342
G01 X46.3550 Y16.3003
G01 X46.2661 Y16.2342
G01 X46.2452 Y16.2191
G01 X46.2239 Y16.2045
G01 X46.2023 Y16.1904
G01 X46.1804 Y16.1769
G01 X46.0962 Y16.1265
G01 X46.0739 Y16.1135
G01 X46.0514 Y16.1011
G01 X46.0285 Y16.0892
G01 X46.0053 Y16.0779
G01 X45.9166 Y16.0359
G01 X45.8932 Y16.0252
G01 X45.8695 Y16.0150
G01 X45.8456 Y16.0055
G01 X45.8214 Y15.9965
G01 X45.7290 Y15.9634
G01 X45.7047 Y15.9551
G01 X45.6801 Y15.9473
G01 X45.6553 Y15.9401
G01 X45.6304 Y15.9335
G01 X45.5352 Y15.9097
G01 X45.5101 Y15.9037
G01 X45.4849 Y15.8984
G01 X45.4596 Y15.8937
G01 X45.4342 Y15.8896
G01 X45.3371 Y15.8752
G01 X45.3115 Y15.8717
G01 X45.2859 Y15.8689
G01 X45.2603 Y15.8667
G01 X45.2345 Y15.8651
G01 X45.1365 Y15.8603
G01 X45.1108 Y15.8593
G01 X45.0850 Y15.8590
G01 X45.0592 Y15.8593
G01 X45.0335 Y15.8603
G01 X44.9355 Y15.8651
G01 X44.9097 Y15.8667
G01 X44.8841 Y15.8689
G01 X44.8585 Y15.8717
G01 X44.8329 Y15.8752
G01 X44.7358 Y15.8896
G01 X44.7104 Y15.8937
G01 X44.6851 Y15.8984
G01 X44.6599 Y15.9037
G01 X44.6348 Y15.9097
G01 X44.5396 Y15.9335
G01 X44.5147 Y15.9401
G01 X44.4899 Y15.9473
G01 X44.4653 Y15.9551
G01 X44.4410 Y15.9634
G01 X44.3486 Y15.9965
G01 X44.3244 Y16.0055
G01 X44.3005 Y16.0150
G01 X44.2768 Y16.0252
G01 X44.2534 Y16.0359
G01 X44.1647 Y16.0779
G01 X44.1415 Y16.0892
G01 X44.1186 Y16.1011
G01 X44.0961 Y16.1135
G01 X44.0738 Y16.1265
G01 X43.9896 Y16.1769
G01 X43.9677 Y16.1904
G01 X43.9461 Y16.2045
G01 X43.9248 Y16.2191
G01 X43.9039 Y16.2342
G01 X43.8150 Y16.3003
G01 X43.7261 Y16.2342
G01 X43.7052 Y16.2191
G01 X43.6839 Y16.2045
G01 X43.6623 Y16.1904
G01 X43.6404 Y16.1769
G01 X43.5562 Y16.1265
G01 X43.5339 Y16.1135
G01 X43.5114 Y16.1011
G01 X43.4885 Y16.0892
G01 X43.4653 Y16.0779
G01 X43.3766 Y16.0359
G01 X43.3532 Y16.0252
G01 X43.3295 Y16.0150
G01 X43.3056 Y16.0055
G01 X43.2814 Y15.9965
G01 X43.1890 Y15.9634
G01 X43.1647 Y15.9551
G01 X43.1401 Y15.9473
G01 X43.1153 Y15.9401
G01 X43.0904 Y15.9335
G01 X42.9952 Y15.9097
G01 X42.9701 Y15.9037
G01 X42.9449 Y15.8984
G01 X42.9196 Y15.8937
G01 X42.8942 Y15.8896
G01 X42.7971 Y15.8752
G01 X42.7715 Y15.8717
G01 X42.7459 Y15.8689
G01 X42.7203 Y15.8667
G01 X42.6945 Y15.8651
G01 X42.5965 Y15.8603
G01 X42.5708 Y15.8593
G01 X42.5450 Y15.8590
G01 X42.5192 Y15.8593
G01 X42.4935 Y15.8603
G01 X42.3955 Y15.8651
G01 X42.3697 Y15.8667
G01 X42.3441 Y15.8689
G01 X42.3185 Y15.8717
G01 X42.2929 Y15.8752
G01 X42.1958 Y15.8896
G01 X42.1704 Y15.8937
G01 X42.1451 Y15.8984
G01 X42.1199 Y15.9037
G01 X42.0948 Y15.9097
G01 X41.9996 Y15.9335
G01 X41.9747 Y15.9401
G01 X41.9499 Y15.9473
G01 X41.9253 Y15.9551
G01 X41.9010 Y15.9634
G01 X41.8086 Y15.9965
G01 X41.7844 Y16.0055
G01 X41.7605 Y16.0150
G01 X41.7368 Y16.0252
G01 X41.7134 Y16.0359
G01 X41.6247 Y16.0779
G01 X41.6015 Y16.0892
G01 X41.5786 Y16.1011
G01 X41.5561 Y16.1135
G01 X41.5338 Y16.1265
G01 X41.4496 Y16.1769
G01 X41.4277 Y16.1904
G01 X41.4061 Y16.2045
G01 X41.3848 Y16.2191
G01 X41.3639 Y16.2342
G01 X41.2851 Y16.2926
G01 X41.2646 Y16.3082
G01 X41.2445 Y16.3243
G01 X41.2248 Y16.3409
G01 X41.2055 Y16.3580
G01 X41.1328 Y16.4239
G01 X41.1139 Y16.4414
G01 X41.0954 Y16.4594
G01 X41.0774 Y16.4779
G01 X41.0214 Y16.5392
G01 X35.9434 Y16.5392
G01 X35.8642 Y16.4679
G01 X35.8445 Y16.4513
G01 X35.8244 Y16.4352
G01 X35.8039 Y16.4196
G01 X35.7251 Y16.3612
G01 X35.7042 Y16.3461
G01 X35.6829 Y16.3315
G01 X35.6613 Y16.3174
G01 X35.6394 Y16.3039
G01 X35.5552 Y16.2535
G01 X35.5329 Y16.2405
G01 X35.5104 Y16.2281
G01 X35.4875 Y16.2162
G01 X35.4643 Y16.2049
G01 X35.3756 Y16.1629
G01 X35.3522 Y16.1522
G01 X35.3285 Y16.1420
G01 X35.3046 Y16.1325
G01 X35.2804 Y16.1235
G01 X35.1880 Y16.0904
G01 X35.1637 Y16.0821
G01 X35.1391 Y16.0743
G01 X35.1143 Y16.0671
G01 X35.0894 Y16.0605
G01 X34.9942 Y16.0367
G01 X34.9691 Y16.0307
G01 X34.9439 Y16.0254
G01 X34.9186 Y16.0207
G01 X34.8932 Y16.0166
G01 X34.7961 Y16.0022
G01 X34.7705 Y15.9987
G01 X34.7449 Y15.9959
G01 X34.7193 Y15.9937
G01 X34.6935 Y15.9921
G01 X34.5955 Y15.9873
G01 X34.5698 Y15.9863
G01 X34.5440 Y15.9860
G01 X34.5182 Y15.9863
G01 X34.4925 Y15.9873
G01 X34.3945 Y15.9921
G01 X34.3687 Y15.9937
G01 X34.3431 Y15.9959
G01 X34.3175 Y15.9987
G01 X34.2919 Y16.0022
G01 X34.1948 Y16.0166
G01 X34.1694 Y16.0207
G01 X34.1441 Y16.0254
G01 X34.1189 Y16.0307
G01 X34.0938 Y16.0367
G01 X33.9986 Y16.0605
G01 X33.9737 Y16.0671
G01 X33.9489 Y16.0743
G01 X33.9243 Y16.0821
G01 X33.9000 Y16.0904
G01 X33.8076 Y16.1235
G01 X33.7834 Y16.1325
G01 X33.7595 Y16.1420
G01 X33.7358 Y16.1522
G01 X33.7124 Y16.1629
G01 X33.6237 Y16.2049
G01 X33.6005 Y16.2162
G01 X33.5776 Y16.2281
G01 X33.5551 Y16.2405
G01 X33.5328 Y16.2535
G01 X33.4486 Y16.3039
G01 X33.4267 Y16.3174
G01 X33.4051 Y16.3315
G01 X33.3838 Y16.3461
G01 X33.3629 Y16.3612
G01 X33.2740 Y16.4273
G01 X33.1851 Y16.3612
G01 X33.1642 Y16.3461
G01 X33.1429 Y16.3315
G01 X33.1213 Y16.3174
G01 X33.0994 Y16.3039
G01 X33.0152 Y16.2535
G01 X32.9929 Y16.2405
G01 X32.9704 Y16.2281
G01 X32.9475 Y16.2162
G01 X32.9243 Y16.2049
G01 X32.8690 Y16.1787
G01 X32.8690 Y13.6795
G01 X32.8686 Y13.6537
G01 X32.8653 Y13.5782
G01 X32.8637 Y13.5524
G01 X32.8615 Y13.5268
G01 X32.8586 Y13.5012
G01 X32.8478 Y13.4263
G01 X32.8437 Y13.4008
G01 X32.8390 Y13.3755
G01 X32.8337 Y13.3503
G01 X32.8156 Y13.2768
G01 X32.8090 Y13.2519
G01 X32.8019 Y13.2272
G01 X32.7941 Y13.2026
G01 X32.7857 Y13.1782
G01 X32.7599 Y13.1071
G01 X32.7503 Y13.0832
G01 X32.7402 Y13.0595
G01 X32.7081 Y12.9910
G01 X32.6968 Y12.9678
G01 X32.6850 Y12.9449
G01 X32.6725 Y12.9224
G01 X32.6596 Y12.9001
G01 X32.6204 Y12.8354
G01 X32.6064 Y12.8138
G01 X32.5918 Y12.7925
G01 X32.5767 Y12.7716
G01 X32.5314 Y12.7111
G01 X32.5153 Y12.6910
G01 X32.4987 Y12.6712
G01 X32.4816 Y12.6519
G01 X32.4306 Y12.5961
G01 X32.4126 Y12.5776
G01 X32.1951 Y12.3601
G01 X32.1766 Y12.3422
G01 X32.1577 Y12.3246
G01 X32.1015 Y12.2740
G01 X32.0818 Y12.2575
G01 X32.0616 Y12.2414
G01 X32.0011 Y12.1960
G01 X31.9802 Y12.1809
G01 X31.9589 Y12.1664
G01 X31.9373 Y12.1523
G01 X31.9154 Y12.1388
G01 X31.8503 Y12.1002
G01 X31.8278 Y12.0877
G01 X31.8049 Y12.0759
G01 X31.7366 Y12.0432
G01 X31.7132 Y12.0325
G01 X31.6895 Y12.0224
G01 X31.6656 Y12.0128
G01 X31.6414 Y12.0038
G01 X31.5701 Y11.9786
G01 X31.5455 Y11.9708
G01 X31.5208 Y11.9637
G01 X31.4475 Y11.9450
G01 X31.4224 Y11.9390
G01 X31.3972 Y11.9337
G01 X31.3719 Y11.9290
G01 X31.3464 Y11.9249
G01 X31.2716 Y11.9141
G01 X31.2459 Y11.9112
G01 X31.2203 Y11.9090
G01 X31.1447 Y11.9050
G01 X31.1190 Y11.9041
G01 X31.0932 Y11.9037
G01 X26.2614 Y11.9037
G01 X20.3732 Y6.0155
G01 X20.4074 Y5.9191
G01 X20.4151 Y5.8945
G01 X20.4223 Y5.8698
G01 X20.4289 Y5.8448
G01 X20.4885 Y5.6069
G01 X20.4945 Y5.5818
G01 X20.4998 Y5.5566
G01 X20.5045 Y5.5312
G01 X20.5086 Y5.5058
G01 X20.5446 Y5.2631
G01 X20.5481 Y5.2376
G01 X20.5509 Y5.2120
G01 X20.5531 Y5.1863
G01 X20.5547 Y5.1606
G01 X20.5667 Y4.9155
G01 X20.5677 Y4.8898
G01 X20.5680 Y4.8640
G01 X20.5677 Y4.8382
G01 X20.5667 Y4.8125
G01 X20.5547 Y4.5674
G01 X20.5531 Y4.5417
G01 X20.5509 Y4.5160
G01 X20.5481 Y4.4904
G01 X20.5446 Y4.4649
G01 X20.5086 Y4.2222
G01 X20.5045 Y4.1968
G01 X20.4998 Y4.1714
G01 X20.4945 Y4.1462
G01 X20.4885 Y4.1211
G01 X20.4289 Y3.8832
G01 X20.4223 Y3.8582
G01 X20.4151 Y3.8335
G01 X20.4074 Y3.8089
G01 X20.3990 Y3.7846
G01 X20.3163 Y3.5536
G01 X20.3073 Y3.5294
G01 X20.2978 Y3.5055
G01 X20.2876 Y3.4818
G01 X20.2769 Y3.4584
G01 X20.1720 Y3.2366
G01 X20.1607 Y3.2134
G01 X20.1488 Y3.1905
G01 X20.1364 Y3.1680
G01 X20.1234 Y3.1457
G01 X19.9973 Y2.9353
G01 X19.9838 Y2.9133
G01 X19.9697 Y2.8917
G01 X19.9551 Y2.8705
G01 X19.9400 Y2.8496
G01 X19.7939 Y2.6525
G01 X19.7783 Y2.6320
G01 X19.7622 Y2.6119
G01 X19.7456 Y2.5922
G01 X19.7285 Y2.5729
G01 X19.5638 Y2.3911
G01 X19.5462 Y2.3722
G01 X19.5282 Y2.3538
G01 X19.5098 Y2.3358
G01 X19.4909 Y2.3182
G01 X19.3091 Y2.1535
G01 X19.2898 Y2.1364
G01 X19.2701 Y2.1198
G01 X19.2500 Y2.1037
G01 X19.2295 Y2.0881
G01 X19.0324 Y1.9420
G01 X19.0115 Y1.9269
G01 X18.9903 Y1.9123
G01 X18.9687 Y1.8982
G01 X18.9467 Y1.8847
G01 X18.7363 Y1.7586
G01 X18.7140 Y1.7456
G01 X18.6915 Y1.7332
G01 X18.6686 Y1.7213
G01 X18.6454 Y1.7100
G01 X18.4236 Y1.6051
G01 X18.4002 Y1.5944
G01 X18.3765 Y1.5842
G01 X18.3526 Y1.5747
G01 X18.3284 Y1.5657
G01 X18.0974 Y1.4830
G01 X18.0731 Y1.4746
G01 X18.0485 Y1.4669
G01 X18.0238 Y1.4597
G01 X17.9988 Y1.4531
G01 X17.7609 Y1.3935
G01 X17.7358 Y1.3875
G01 X17.7106 Y1.3822
G01 X17.6852 Y1.3775
G01 X17.6598 Y1.3734
G01 X17.4171 Y1.3374
G01 X17.3916 Y1.3339
G01 X17.3660 Y1.3311
G01 X17.3403 Y1.3289
G01 X17.3146 Y1.3273
G01 X17.0695 Y1.3153
