(G-CODE GENERATED BY FLATCAM v8.994 - www.flatcam.org - Version Date: 2020/11/7)

(Name: PCB1_PTH_Drill.gbr_conv_edit_cnc)
(Type: G-code from Geometry)
(Units: MM)

(Created on Tuesday, 25 November 2025 at 20:15)

(This preprocessor is the default preprocessor used by FlatCAM.)
(It is made to work with MACH3 compatible motion controllers.)


(TOOLS DIAMETER: )
(Tool: 1 -> Dia: 1.0)

(FEEDRATE Z: )
(Tool: 1 -> Feedrate: 15.0)

(FEEDRATE RAPIDS: )
(Tool: 1 -> Feedrate Rapids: 1500)

(Z_CUT: )
(Tool: 1 -> Z_Cut: -2.0)

(Tools Offset: )
(Tool: 1 -> Offset Z: 0.0)

(Z_MOVE: )
(Tool: 1 -> Z_Move: 2)

(Z Toolchange: 2.0 mm)
(X,Y Toolchange: 0.0000, 0.0000 mm)
(Z Start: None mm)
(Z End: 30.0 mm)
(X,Y End: 0.0000, 0.0000 mm)
(Steps per circle: 64)
(Preprocessor Excellon: default)

(X range:    5.4690 ...   58.4120  mm)
(Y range:    4.3640 ...   55.8720  mm)

(Spindle Speed: 0 RPM)
G21
G90
G94

G01 F15.00

M5
G00 Z2.0000
T1
G00 X0.0000 Y0.0000                
M6
(MSG, Change to Tool Dia = 1.0000 ||| Total drills for tool T1 = 29)
M0
G00 Z2.0000

G01 F15.00
M03
G00 X57.9120 Y55.3720
G01 Z-2.0000
G01 Z0
G00 Z2.0000
G00 X51.5620 Y55.3720
G01 Z-2.0000
G01 Z0
G00 Z2.0000
G00 X43.9420 Y47.7520
G01 Z-2.0000
G01 Z0
G00 Z2.0000
G00 X38.8620 Y47.7520
G01 Z-2.0000
G01 Z0
G00 Z2.0000
G00 X17.0180 Y54.8640
G01 Z-2.0000
G01 Z0
G00 Z2.0000
G00 X5.9690 Y35.1790
G01 Z-2.0000
G01 Z0
G00 Z2.0000
G00 X5.9690 Y30.0990
G01 Z-2.0000
G01 Z0
G00 Z2.0000
G00 X17.0180 Y4.8640
G01 Z-2.0000
G01 Z0
G00 Z2.0000
G00 X29.4640 Y18.1610
G01 Z-2.0000
G01 Z0
G00 Z2.0000
G00 X32.0040 Y18.1610
G01 Z-2.0000
G01 Z0
G00 Z2.0000
G00 X34.5440 Y18.1610
G01 Z-2.0000
G01 Z0
G00 Z2.0000
G00 X29.7180 Y26.0350
G01 Z-2.0000
G01 Z0
G00 Z2.0000
G00 X29.7180 Y38.0350
G01 Z-2.0000
G01 Z0
G00 Z2.0000
G00 X37.3384 Y35.9845
G01 Z-2.0000
G01 Z0
G00 Z2.0000
G00 X39.7510 Y35.9845
G01 Z-2.0000
G01 Z0
G00 Z2.0000
G00 X42.3154 Y35.9845
G01 Z-2.0000
G01 Z0
G00 Z2.0000
G00 X44.8310 Y35.9845
G01 Z-2.0000
G01 Z0
G00 Z2.0000
G00 X44.8310 Y28.1940
G01 Z-2.0000
G01 Z0
G00 Z2.0000
G00 X42.3154 Y28.1940
G01 Z-2.0000
G01 Z0
G00 Z2.0000
G00 X39.7510 Y28.1940
G01 Z-2.0000
G01 Z0
G00 Z2.0000
G00 X37.3384 Y28.1940
G01 Z-2.0000
G01 Z0
G00 Z2.0000
G00 X42.5450 Y18.0340
G01 Z-2.0000
G01 Z0
G00 Z2.0000
G00 X45.0850 Y18.0340
G01 Z-2.0000
G01 Z0
G00 Z2.0000
G00 X47.6250 Y18.0340
G01 Z-2.0000
G01 Z0
G00 Z2.0000
G00 X55.4990 Y27.5590
G01 Z-2.0000
G01 Z0
G00 Z2.0000
G00 X55.4990 Y32.6390
G01 Z-2.0000
G01 Z0
G00 Z2.0000
G00 X55.4990 Y37.7190
G01 Z-2.0000
G01 Z0
G00 Z2.0000
G00 X51.5620 Y43.3720
G01 Z-2.0000
G01 Z0
G00 Z2.0000
G00 X57.9120 Y43.3720
G01 Z-2.0000
G01 Z0
G00 Z2.0000
M05
G00 Z30.00
G00 X0.0 Y0.0


